;This Gcode has been generated specifically for the LulzBot Mini
;Basic settings: Layer height: 0.38 Walls: 1 Fill: 20
;Filament Diameter: 2.85
;Nozzle Size: 0.5
G21                          ; metric values
G90                          ; absolute positioning
M82                          ; set extruder to absolute mode
M107                         ; start with the fan off
G92 E0                       ; set extruder position to 0
M140 S60; get bed heating up
G28                          ; home all
M109 S140                    ; set to cleaning temp and wait
G1 Z150 E-30 F75             ; suck up XXmm of filament
M109 S140                    ; heat up rest of way
G1 X45 Y174 F11520           ; move behind scraper
G1 Z0  F1200                 ; CRITICAL: set Z to height of top of scraper
G1 X45 Y174 Z-.5 F4000       ; wiping ; plunge into wipe pad
G1 X55 Y172 Z-.5 F4000       ; wiping
G1 X45 Y174 Z0 F4000         ; wiping
G1 X55 Y172 F4000            ; wiping
G1 X45 Y174 F4000            ; wiping
G1 X55 Y172 F4000            ; wiping
G1 X45 Y174 F4000            ; wiping
G1 X55 Y172 F4000            ; wiping
G1 X60 Y174 F4000            ; wiping
G1 X80 Y172 F4000            ; wiping
G1 X60 Y174 F4000            ; wiping
G1 X80 Y172 F4000            ; wiping
G1 X60 Y174 F4000            ; wiping
G1 X90 Y172 F4000            ; wiping
G1 X80 Y174 F4000            ; wiping
G1 X100 Y172 F4000           ; wiping
G1 X80 Y174 F4000            ; wiping
G1 X100 Y172 F4000           ; wiping
G1 X80 Y174 F4000            ; wiping
G1 X100 Y172 F4000           ; wiping
G1 X110 Y174 F4000           ; wiping
G1 X100 Y172 F4000           ; wiping
G1 X110 Y174 F4000           ; wiping
G1 X100 Y172 F4000           ; wiping
G1 X110 Y174 F4000           ; wiping
G1 X115 Y172 Z-0.5 F1000     ; wipe slower and bury noz in cleanish area
G1 Z10                       ; raise z
G28 X0 Y0                    ; home x and y
M109 S140                    ; set to probing temp
M204 S300                    ; Set probing acceleration
G29                          ; Probe
M204 S2000                   ; Restore standard acceleration
G1 X5 Y15 Z10 F5000          ; get out the way
G4 S1                        ; pause
M400                         ; clear buffer
M109 S205    ; set extruder temp and wait
G4 S15                       ; wait for bed to temp up
G1 Z2 E0 F75                 ; extrude filament back into nozzle
M140 S60; get bed temping up during first layer

;Layer count: 81
;LAYER:0
M107
G0 F10500 X34.661 Y34.300 Z0.425
G0 X34.286 Y34.780
;TYPE:SKIRT
G1 F900 X34.661 Y34.300 E0.02536
G1 X36.299 Y32.662 E0.12182
G1 X37.634 Y31.617 E0.19241
G1 X38.119 Y31.236 E0.21809
G1 X39.572 Y30.358 E0.28878
G1 X40.100 Y30.037 E0.31450
G1 X42.216 Y29.086 E0.41110
G1 X43.843 Y28.580 E0.48205
G1 X44.419 Y28.398 E0.50720
G1 X46.085 Y28.095 E0.57770
G1 X46.695 Y27.980 E0.60355
G1 X48.401 Y27.878 E0.67471
G1 X48.912 Y27.847 E0.69603
G1 X111.088 Y27.847 E3.28491
G1 X112.688 Y27.944 E3.35165
G1 X113.296 Y27.979 E3.37701
G1 X114.974 Y28.287 E3.44805
G1 X114.974 Y28.288 E3.44809
G1 X115.575 Y28.397 E3.47352
G1 X117.203 Y28.905 E3.54453
G1 X117.788 Y29.088 E3.57005
G1 X119.330 Y29.782 E3.64046
G1 X119.894 Y30.034 E3.66618
G1 X121.352 Y30.916 E3.73713
G1 X121.879 Y31.234 E3.76276
G1 X123.215 Y32.282 E3.83346
G1 X123.700 Y32.661 E3.85909
G1 X125.338 Y34.299 E3.95555
G1 X126.383 Y35.634 E4.02614
G1 X126.764 Y36.119 E4.05182
G1 X127.642 Y37.572 E4.12251
G1 X127.963 Y38.100 E4.14823
G1 X128.660 Y39.651 E4.21904
G1 X128.914 Y40.213 E4.24472
G1 X129.418 Y41.834 E4.31540
G1 X129.603 Y42.423 E4.34110
G1 X129.905 Y44.085 E4.41144
G1 X130.020 Y44.695 E4.43729
G1 X130.122 Y46.401 E4.50845
G1 X130.153 Y46.912 E4.52976
G1 X130.153 Y113.551 E7.30448
G1 X130.054 Y114.943 E7.36258
G1 X130.053 Y114.943 E7.36262
G1 X130.014 Y115.525 E7.38691
G1 X129.690 Y117.012 E7.45028
G1 X129.564 Y117.586 E7.47475
G1 X129.035 Y119.003 E7.53773
G1 X128.831 Y119.550 E7.56204
G1 X128.105 Y120.880 E7.62513
G1 X127.824 Y121.396 E7.64959
G1 X126.915 Y122.609 E7.71271
G1 X126.566 Y123.078 E7.73705
G1 X125.492 Y124.150 E7.80023
G1 X125.080 Y124.564 E7.82455
G1 X123.872 Y125.466 E7.88732
G1 X123.399 Y125.822 E7.91197
G1 X122.065 Y126.550 E7.97525
G1 X122.065 Y126.549 E7.97529
G1 X121.552 Y126.830 E7.99965
G1 X120.130 Y127.360 E8.06284
G1 X119.586 Y127.564 E8.08703
G1 X118.100 Y127.887 E8.15035
G1 X117.536 Y128.012 E8.17440
G1 X116.019 Y128.120 E8.23773
G1 X115.551 Y128.153 E8.25726
G1 X48.913 Y128.153 E11.03193
G1 X47.312 Y128.056 E11.09871
G1 X46.704 Y128.021 E11.12407
G1 X45.026 Y127.713 E11.19511
G1 X45.026 Y127.712 E11.19515
G1 X44.425 Y127.603 E11.22058
G1 X42.798 Y127.096 E11.29154
G1 X42.216 Y126.915 E11.31692
G1 X40.661 Y126.215 E11.38792
G1 X40.103 Y125.964 E11.41340
G1 X38.645 Y125.082 E11.48435
G1 X38.121 Y124.766 E11.50983
G1 X36.780 Y123.714 E11.58080
G1 X36.300 Y123.339 E11.60616
G1 X34.662 Y121.701 E11.70261
G1 X33.612 Y120.359 E11.77356
G1 X33.236 Y119.881 E11.79889
G1 X32.353 Y118.419 E11.87000
G1 X32.037 Y117.900 E11.89530
G1 X31.086 Y115.784 E11.99190
G1 X30.580 Y114.157 E12.06284
G1 X30.398 Y113.581 E12.08800
G1 X30.092 Y111.897 E12.15926
G1 X29.980 Y111.305 E12.18435
G1 X29.878 Y109.597 E12.25559
G1 X29.847 Y109.089 E12.27678
G1 X29.847 Y46.913 E14.86567
G1 X29.944 Y45.312 E14.93245
G1 X29.979 Y44.704 E14.95781
G1 X30.287 Y43.026 E15.02884
G1 X30.288 Y43.026 E15.02889
G1 X30.397 Y42.425 E15.05432
G1 X30.905 Y40.797 E15.12533
G1 X31.088 Y40.212 E15.15085
G1 X31.786 Y38.661 E15.22167
G1 X32.034 Y38.106 E15.24698
G1 X32.918 Y36.645 E15.31808
G1 X33.234 Y36.121 E15.34356
G1 X34.286 Y34.780 E15.41453
G1 F600 E13.91453
G1 Z0.525
G0 F10500 X37.630 Y37.402
;TYPE:WALL-INNER
G1 Z0.425
G1 F600 E15.41453
G1 F900 X37.845 Y37.126 E15.42910
G1 X39.123 Y35.848 E15.50435
G1 X40.261 Y34.957 E15.56453
G1 X40.542 Y34.735 E15.57944
G1 X41.779 Y33.989 E15.63959
G1 X42.083 Y33.805 E15.65439
G1 X43.724 Y33.067 E15.72931
G1 X45.106 Y32.637 E15.78957
G1 X45.441 Y32.531 E15.80420
G1 X46.866 Y32.271 E15.86451
G1 X47.219 Y32.205 E15.87947
G1 X49.036 Y32.096 E15.95526
G1 X110.964 Y32.096 E18.53381
G1 X112.431 Y32.185 E18.59501
G1 X112.780 Y32.205 E18.60956
G1 X114.207 Y32.467 E18.66998
G1 X114.555 Y32.530 E18.68470
G1 X115.937 Y32.961 E18.74498
G1 X116.276 Y33.066 E18.75975
G1 X117.595 Y33.661 E18.82000
G1 X117.915 Y33.803 E18.83458
G1 X119.156 Y34.554 E18.89498
G1 X119.462 Y34.738 E18.90985
G1 X120.598 Y35.630 E18.96999
G1 X120.874 Y35.845 E18.98455
G1 X122.152 Y37.123 E19.05981
G1 X123.043 Y38.261 E19.11999
G1 X123.265 Y38.542 E19.13490
G1 X124.011 Y39.779 E19.19505
G1 X124.195 Y40.083 E19.20984
G1 X124.788 Y41.400 E19.26998
G1 X124.934 Y41.724 E19.28478
G1 X125.364 Y43.105 E19.34500
G1 X125.469 Y43.442 E19.35970
G1 X125.729 Y44.866 E19.41997
G1 X125.795 Y45.219 E19.43493
G1 X125.904 Y47.036 E19.51072
G1 X125.904 Y113.394 E22.27373
G1 X125.815 Y114.642 E22.32583
G1 X125.796 Y114.922 E22.33751
G1 X125.538 Y116.105 E22.38793
G1 X125.479 Y116.378 E22.39956
G1 X125.054 Y117.517 E22.45018
G1 X124.955 Y117.784 E22.46203
G1 X124.242 Y119.090 E22.52399
G1 X123.514 Y120.063 E22.57459
G1 X123.346 Y120.288 E22.58628
G1 X122.488 Y121.145 E22.63677
G1 X122.291 Y121.343 E22.64840
G1 X121.318 Y122.070 E22.69898
G1 X121.095 Y122.238 E22.71060
G1 X120.030 Y122.820 E22.76114
G1 X119.781 Y122.956 E22.77295
G1 X118.646 Y123.378 E22.82337
G1 X118.383 Y123.477 E22.83507
G1 X117.197 Y123.735 E22.88561
G1 X116.921 Y123.796 E22.89738
G1 X115.395 Y123.904 E22.96108
G1 X49.037 Y123.904 E25.72409
G1 X47.569 Y123.815 E25.78532
G1 X47.220 Y123.795 E25.79988
G1 X45.793 Y123.533 E25.86029
G1 X45.444 Y123.470 E25.87506
G1 X44.062 Y123.039 E25.93533
G1 X43.720 Y122.933 E25.95024
G1 X42.085 Y122.197 E26.02490
G1 X40.844 Y121.446 E26.08530
G1 X40.538 Y121.262 E26.10016
G1 X39.402 Y120.370 E26.16030
G1 X39.126 Y120.155 E26.17487
G1 X37.848 Y118.877 E26.25013
G1 X36.957 Y117.739 E26.31031
G1 X36.735 Y117.458 E26.32522
G1 X35.989 Y116.221 E26.38537
G1 X35.805 Y115.917 E26.40016
G1 X35.067 Y114.276 E26.47508
G1 X34.637 Y112.894 E26.53535
G1 X34.531 Y112.559 E26.54998
G1 X34.271 Y111.134 E26.61029
G1 X34.205 Y110.781 E26.62524
G1 X34.096 Y108.965 E26.70099
G1 X34.096 Y47.037 E29.27955
G1 X34.185 Y45.569 E29.34079
G1 X34.205 Y45.220 E29.35534
G1 X34.467 Y43.793 E29.41575
G1 X34.530 Y43.445 E29.43048
G1 X34.961 Y42.063 E29.49075
G1 X35.066 Y41.724 E29.50553
G1 X35.661 Y40.405 E29.56578
G1 X35.803 Y40.085 E29.58036
G1 X36.554 Y38.844 E29.64076
G1 X36.738 Y38.538 E29.65562
G1 X37.630 Y37.402 E29.71576
G0 F10500 X65.414 Y61.793
G1 F900 X65.025 Y62.264 E29.74120
G1 X64.683 Y62.763 E29.76639
G1 X64.330 Y63.277 E29.79235
G1 X64.016 Y63.824 E29.81861
G1 X63.687 Y64.390 E29.84587
G1 X63.411 Y64.959 E29.87220
G1 X63.123 Y65.549 E29.89954
G1 X62.845 Y66.234 E29.93032
G1 X62.556 Y66.943 E29.96220
G1 X62.042 Y68.481 E30.02972
G1 X61.892 Y68.987 E30.05170
G1 X61.726 Y69.601 E30.07818
G1 X61.618 Y70.123 E30.10038
G1 X61.593 Y70.454 E30.11420
G1 X61.613 Y70.802 E30.12871
G1 X61.687 Y71.141 E30.14316
G1 X61.842 Y71.524 E30.16036
G1 X62.067 Y71.864 E30.17734
G1 X62.356 Y72.175 E30.19502
G1 X62.728 Y72.461 E30.21455
G1 X63.207 Y72.733 E30.23749
G1 X63.925 Y73.054 E30.27024
G1 X64.368 Y73.279 E30.29093
G1 X64.746 Y73.560 E30.31054
G1 X65.055 Y73.897 E30.32958
G1 X65.378 Y74.361 E30.35312
G1 X65.717 Y74.981 E30.38254
G1 X65.908 Y75.352 E30.39991
G1 X66.227 Y76.142 E30.43539
G1 X66.460 Y76.925 E30.46940
G1 X66.594 Y77.701 E30.50219
G1 X66.648 Y78.127 E30.52007
G1 X66.658 Y78.972 E30.55526
G1 X66.577 Y79.925 E30.59508
G1 X66.452 Y80.683 E30.62707
G1 X66.372 Y81.116 E30.64540
G1 X66.176 Y81.892 E30.67873
G1 X65.965 Y82.441 E30.70322
G1 X65.775 Y82.774 E30.71918
G1 X65.523 Y83.078 E30.73562
G1 X65.228 Y83.326 E30.75167
G1 X64.747 Y83.633 E30.77543
G1 X64.144 Y84.014 E30.80513
G1 X63.807 Y84.234 E30.82189
G1 X63.230 Y84.753 E30.85420
G1 X62.989 Y85.073 E30.87088
G1 X62.805 Y85.409 E30.88683
G1 X62.661 Y85.857 E30.90643
G1 X62.617 Y86.234 E30.92223
G1 X62.642 Y86.652 E30.93967
G1 X62.745 Y87.083 E30.95812
G1 X62.941 Y87.552 E30.97928
G1 X63.272 Y88.099 E31.00590
G1 X63.725 Y88.685 E31.03674
G1 X63.988 Y88.974 E31.05301
G1 X64.574 Y89.521 E31.08639
G1 X65.242 Y90.018 E31.12106
G1 X66.013 Y90.474 E31.15836
G1 X66.939 Y90.910 E31.20097
G1 X67.895 Y91.268 E31.24348
G1 X68.866 Y91.542 E31.28549
G1 X69.878 Y91.731 E31.32836
G1 X70.849 Y91.815 E31.36894
G1 X71.810 Y91.807 E31.40895
G1 X72.759 Y91.706 E31.44869
G1 X73.692 Y91.515 E31.48834
G1 X73.722 Y91.506 E31.48965
G1 X73.475 Y91.694 E31.50257
G1 X72.724 Y92.383 E31.54501
G1 X72.252 Y92.901 E31.57419
G1 X71.938 Y93.260 E31.59405
G1 X71.408 Y93.980 E31.63127
G1 X70.964 Y94.717 E31.66710
G1 X70.756 Y95.132 E31.68643
G1 X70.442 Y95.913 E31.72148
G1 X70.175 Y96.834 E31.76140
G1 X69.983 Y97.741 E31.80001
G1 X69.854 Y98.552 E31.83420
G1 X69.823 Y98.897 E31.84862
G1 X69.825 Y99.118 E31.85783
G1 X69.824 Y99.366 E31.86815
G1 X69.861 Y99.661 E31.88053
G1 X69.940 Y99.970 E31.89381
G1 X70.066 Y100.275 E31.90755
G1 X70.320 Y100.644 E31.92620
G1 X70.631 Y100.917 E31.94344
G1 X70.908 Y101.077 E31.95675
G1 X71.205 Y101.186 E31.96993
G1 X71.519 Y101.245 E31.98323
G1 X71.820 Y101.260 E31.99578
G1 X72.248 Y101.213 E32.01371
G1 X72.747 Y101.079 E32.03522
G1 X73.401 Y100.814 E32.06460
G1 X74.559 Y100.226 E32.11868
G1 X75.060 Y99.960 E32.14230
G1 X75.606 Y99.673 E32.16798
G1 X76.290 Y99.267 E32.20110
G1 X76.976 Y98.768 E32.23642
G1 X77.581 Y98.202 E32.27092
G1 X78.163 Y97.526 E32.30806
G1 X78.488 Y97.092 E32.33064
G1 X79.074 Y96.196 E32.37521
G1 X79.597 Y95.263 E32.41975
G1 X80.041 Y94.313 E32.46341
G1 X80.377 Y93.371 E32.50506
G1 X80.540 Y92.787 E32.53030
G1 X80.708 Y92.062 E32.56129
G1 X80.806 Y91.401 E32.58911
G1 X80.805 Y91.202 E32.59740
G1 X80.807 Y90.972 E32.60698
G1 X80.739 Y90.626 E32.62166
G1 X81.116 Y90.758 E32.63829
G1 X81.686 Y90.960 E32.66347
G1 X82.770 Y91.266 E32.71037
G1 X83.582 Y91.435 E32.74490
G1 X84.611 Y91.565 E32.78809
G1 X85.639 Y91.598 E32.83092
G1 X86.673 Y91.538 E32.87404
G1 X87.706 Y91.383 E32.91754
G1 X88.426 Y91.209 E32.94838
G1 X88.930 Y91.077 E32.97007
G1 X89.866 Y90.742 E33.01147
G1 X90.756 Y90.330 E33.05230
G1 X91.518 Y89.893 E33.08888
G1 X92.308 Y89.338 E33.12908
G1 X93.037 Y88.709 E33.16917
G1 X93.711 Y88.005 E33.20975
G1 X94.241 Y87.347 E33.24493
G1 X94.856 Y86.439 E33.29059
G1 X95.124 Y85.953 E33.31370
G1 X95.403 Y85.451 E33.33762
G1 X95.636 Y84.929 E33.36142
G1 X95.880 Y84.390 E33.38605
G1 X96.230 Y83.423 E33.42887
G1 X96.404 Y82.808 E33.45549
G1 X96.589 Y82.165 E33.48334
G1 X96.717 Y81.529 E33.51036
G1 X96.855 Y80.865 E33.53860
G1 X96.937 Y80.214 E33.56592
G1 X97.028 Y79.535 E33.59444
G1 X97.065 Y78.868 E33.62226
G1 X97.105 Y78.190 E33.65054
G1 X97.108 Y77.457 E33.68106
G1 X97.073 Y76.759 E33.71016
G1 X97.037 Y76.027 E33.74067
G1 X96.951 Y75.318 E33.77041
G1 X96.865 Y74.579 E33.80139
G1 X96.589 Y73.116 E33.86338
G1 X96.211 Y71.641 E33.92678
G1 X95.900 Y70.685 E33.96864
G1 X95.637 Y69.897 E34.00323
G1 X95.036 Y68.402 E34.07032
G1 X94.701 Y67.693 E34.10297
G1 X94.355 Y66.956 E34.13687
G1 X93.983 Y66.275 E34.16918
G1 X93.602 Y65.572 E34.20248
G1 X93.084 Y64.721 E34.24396
G1 X92.239 Y63.479 E34.30651
G1 X91.790 Y62.902 E34.33695
G1 X91.323 Y62.300 E34.36867
G1 X90.840 Y61.754 E34.39902
G1 X90.343 Y61.192 E34.43026
G1 X89.857 Y60.693 E34.45927
G1 X89.200 Y60.070 E34.49697
G1 X88.539 Y59.529 E34.53253
G1 X87.865 Y59.074 E34.56639
G1 X87.056 Y58.668 E34.60408
G1 X86.390 Y58.445 E34.63332
G1 X85.770 Y58.313 E34.65972
G1 X85.011 Y58.237 E34.69148
G1 X84.228 Y58.249 E34.72409
G1 X83.742 Y58.298 E34.74443
G1 X82.895 Y58.457 E34.78031
G1 X81.994 Y58.727 E34.81947
G1 X81.170 Y59.041 E34.85619
G1 X80.686 Y59.233 E34.87787
G1 X79.873 Y59.547 E34.91416
G1 X79.209 Y59.746 E34.94302
G1 X78.849 Y59.803 E34.95820
G1 X78.682 Y59.804 E34.96515
G1 X78.065 Y59.794 E34.99084
G1 X77.672 Y59.783 E35.00722
G1 X76.810 Y59.803 E35.04312
G1 X76.741 Y59.798 E35.04600
G1 X76.397 Y59.724 E35.06065
G1 X75.606 Y59.455 E35.09544
G1 X74.902 Y59.259 E35.12586
G1 X74.432 Y59.123 E35.14624
G1 X73.976 Y58.912 E35.16716
G1 X73.369 Y58.618 E35.19524
G1 X73.053 Y58.478 E35.20963
G1 X72.527 Y58.320 E35.23250
G1 X72.210 Y58.264 E35.24590
G1 X71.648 Y58.230 E35.26935
G1 X71.029 Y58.278 E35.29520
G1 X70.362 Y58.428 E35.32366
G1 X69.960 Y58.536 E35.34100
G1 X69.148 Y58.848 E35.37722
G1 X68.393 Y59.226 E35.41237
G1 X67.587 Y59.734 E35.45204
G1 X66.817 Y60.332 E35.49264
G1 X66.079 Y61.028 E35.53488
G1 X65.414 Y61.793 E35.57708
G0 F10500 X65.891 Y62.196
;TYPE:WALL-OUTER
G1 F900 X65.525 Y62.640 E35.60104
G1 X64.859 Y63.611 E35.65007
G1 X64.556 Y64.137 E35.67534
G1 X64.239 Y64.683 E35.70163
G1 X63.694 Y65.804 E35.75353
G1 X63.142 Y67.161 E35.81453
G1 X62.638 Y68.668 E35.88069
G1 X62.494 Y69.157 E35.90192
G1 X62.334 Y69.746 E35.92733
G1 X62.238 Y70.210 E35.94706
G1 X62.219 Y70.460 E35.95750
G1 X62.234 Y70.717 E35.96822
G1 X62.286 Y70.956 E35.97840
G1 X62.398 Y71.231 E35.99077
G1 X62.560 Y71.477 E36.00303
G1 X62.778 Y71.712 E36.01638
G1 X63.074 Y71.939 E36.03191
G1 X63.490 Y72.175 E36.05183
G1 X64.201 Y72.494 E36.08427
G1 X64.691 Y72.741 E36.10712
G1 X65.190 Y73.119 E36.13319
G1 X65.544 Y73.506 E36.15503
G1 X65.908 Y74.030 E36.18159
G1 X66.265 Y74.681 E36.21251
G1 X66.478 Y75.093 E36.23182
G1 X66.816 Y75.930 E36.26940
G1 X67.070 Y76.784 E36.30650
G1 X67.215 Y77.623 E36.34195
G1 X67.272 Y78.085 E36.36134
G1 X67.284 Y78.996 E36.39927
G1 X67.199 Y79.992 E36.44089
G1 X67.066 Y80.796 E36.47483
G1 X66.774 Y82.080 E36.52965
G1 X66.532 Y82.706 E36.55760
G1 X66.288 Y83.134 E36.57811
G1 X65.969 Y83.519 E36.59893
G1 X65.598 Y83.830 E36.61909
G1 X65.081 Y84.161 E36.64465
G1 X64.481 Y84.540 E36.67420
G1 X64.189 Y84.731 E36.68873
G1 X63.692 Y85.178 E36.71656
G1 X63.515 Y85.412 E36.72878
G1 X63.382 Y85.656 E36.74035
G1 X63.275 Y85.990 E36.75495
G1 X63.244 Y86.252 E36.76594
G1 X63.262 Y86.559 E36.77874
G1 X63.341 Y86.888 E36.79283
G1 X63.500 Y87.269 E36.81002
G1 X63.788 Y87.745 E36.83318
G1 X64.204 Y88.283 E36.86150
G1 X64.433 Y88.534 E36.87565
G1 X64.975 Y89.040 E36.90652
G1 X65.589 Y89.497 E36.93839
G1 X66.306 Y89.921 E36.97308
G1 X67.183 Y90.334 E37.01344
G1 X68.090 Y90.674 E37.05377
G1 X69.008 Y90.933 E37.09349
G1 X69.963 Y91.111 E37.13394
G1 X70.874 Y91.190 E37.17201
G1 X71.774 Y91.182 E37.20949
G1 X72.664 Y91.088 E37.24675
G1 X73.539 Y90.909 E37.28394
G1 X74.172 Y90.717 E37.31148
G1 X74.701 Y90.551 E37.33457
G1 X76.105 Y90.029 E37.39694
G1 X76.582 Y89.865 E37.41794
G1 X77.067 Y89.700 E37.43927
G1 X77.789 Y89.512 E37.47033
G1 X78.493 Y89.406 E37.49998
G1 X79.006 Y89.409 E37.52134
G1 X79.470 Y89.498 E37.54101
G1 X80.243 Y89.771 E37.57514
G1 X80.796 Y89.983 E37.59980
G1 X81.876 Y90.364 E37.64749
G1 X82.919 Y90.658 E37.69261
G1 X83.686 Y90.818 E37.72523
G1 X84.660 Y90.941 E37.76611
G1 X85.631 Y90.972 E37.80656
G1 X86.608 Y90.916 E37.84731
G1 X87.586 Y90.769 E37.88849
G1 X88.273 Y90.603 E37.91792
G1 X88.745 Y90.479 E37.93824
G1 X89.629 Y90.163 E37.97733
G1 X90.468 Y89.774 E38.01583
G1 X91.182 Y89.366 E38.05007
G1 X91.923 Y88.844 E38.08782
G1 X92.606 Y88.256 E38.12534
G1 X93.241 Y87.592 E38.16360
G1 X93.738 Y86.975 E38.19658
G1 X94.322 Y86.112 E38.23997
G1 X94.844 Y85.171 E38.28478
G1 X95.066 Y84.672 E38.30752
G1 X95.300 Y84.155 E38.33115
G1 X95.635 Y83.231 E38.37207
G1 X95.981 Y82.017 E38.42463
G1 X96.106 Y81.402 E38.45077
G1 X96.238 Y80.762 E38.47797
G1 X96.318 Y80.132 E38.50442
G1 X96.405 Y79.477 E38.53193
G1 X96.441 Y78.833 E38.55879
G1 X96.480 Y78.170 E38.58644
G1 X96.483 Y77.472 E38.61550
G1 X96.414 Y76.079 E38.67358
G1 X96.331 Y75.390 E38.70247
G1 X96.247 Y74.673 E38.73253
G1 X95.979 Y73.251 E38.79278
G1 X95.611 Y71.816 E38.85447
G1 X95.306 Y70.880 E38.89546
G1 X95.050 Y70.113 E38.92912
G1 X94.463 Y68.652 E38.99468
G1 X93.797 Y67.238 E39.05976
G1 X93.060 Y65.883 E39.12399
G1 X92.558 Y65.060 E39.16413
G1 X91.733 Y63.847 E39.22521
G1 X90.841 Y62.699 E39.28574
G1 X89.885 Y61.617 E39.34586
G1 X89.418 Y61.138 E39.37372
G1 X88.786 Y60.539 E39.40997
G1 X88.166 Y60.030 E39.44337
G1 X87.549 Y59.614 E39.47436
G1 X86.815 Y59.246 E39.50855
G1 X86.225 Y59.049 E39.53445
G1 X85.674 Y58.931 E39.55791
G1 X84.984 Y58.863 E39.58678
G1 X84.264 Y58.873 E39.61676
G1 X83.831 Y58.917 E39.63488
G1 X83.043 Y59.065 E39.66827
G1 X82.196 Y59.319 E39.70509
G1 X81.396 Y59.624 E39.74074
G1 X80.911 Y59.816 E39.76245
G1 X80.072 Y60.140 E39.79990
G1 X79.352 Y60.356 E39.83120
G1 X78.898 Y60.428 E39.85034
G1 X78.675 Y60.429 E39.85963
G1 X78.046 Y60.419 E39.88582
G1 X77.670 Y60.408 E39.90148
G1 X76.799 Y60.429 E39.93776
G1 X76.651 Y60.418 E39.94394
G1 X76.227 Y60.327 E39.96200
G1 X75.421 Y60.053 E39.99744
G1 X74.736 Y59.862 E40.02705
G1 X74.206 Y59.708 E40.05003
G1 X73.717 Y59.481 E40.07248
G1 X73.106 Y59.185 E40.10075
G1 X72.836 Y59.065 E40.11305
G1 X72.382 Y58.929 E40.13279
G1 X72.137 Y58.886 E40.14314
G1 X71.653 Y58.856 E40.16334
G1 X71.122 Y58.898 E40.18552
G1 X70.511 Y59.035 E40.21159
G1 X70.153 Y59.131 E40.22702
G1 X69.401 Y59.420 E40.26056
G1 X68.701 Y59.771 E40.29317
G1 X67.947 Y60.246 E40.33028
G1 X67.224 Y60.808 E40.36841
G1 X66.530 Y61.462 E40.40811
G1 X65.891 Y62.196 E40.44863
G1 F600 E38.94863
G1 Z0.525
G0 F10500 X77.216 Y90.208
G1 Z0.425
G1 F600 E40.44863
G1 F900 X76.375 Y90.582 E40.48696
G1 X75.481 Y91.056 E40.52909
G1 X74.647 Y91.586 E40.57023
G1 X73.877 Y92.173 E40.61055
G1 X73.167 Y92.825 E40.65069
G1 X72.718 Y93.317 E40.67842
G1 X72.426 Y93.651 E40.69689
G1 X71.928 Y94.328 E40.73189
G1 X71.511 Y95.018 E40.76546
G1 X71.326 Y95.389 E40.78272
G1 X71.034 Y96.117 E40.81538
G1 X70.782 Y96.986 E40.85305
G1 X70.598 Y97.855 E40.89004
G1 X70.474 Y98.629 E40.92268
G1 X70.448 Y98.922 E40.93492
G1 X70.450 Y99.121 E40.94321
G1 X70.449 Y99.329 E40.95187
G1 X70.476 Y99.544 E40.96089
G1 X70.534 Y99.772 E40.97069
G1 X70.618 Y99.975 E40.97984
G1 X70.791 Y100.226 E40.99253
G1 X70.997 Y100.407 E41.00395
G1 X71.173 Y100.509 E41.01242
G1 X71.371 Y100.581 E41.02119
G1 X71.592 Y100.623 E41.03056
G1 X71.801 Y100.633 E41.03927
G1 X72.133 Y100.597 E41.05317
G1 X72.548 Y100.485 E41.07107
G1 X73.141 Y100.245 E41.09771
G1 X74.271 Y99.672 E41.15046
G1 X74.770 Y99.406 E41.17401
G1 X75.301 Y99.127 E41.19898
G1 X75.946 Y98.745 E41.23020
G1 X76.577 Y98.285 E41.26271
G1 X77.129 Y97.768 E41.29420
G1 X77.675 Y97.134 E41.32904
G1 X77.976 Y96.733 E41.34992
G1 X78.539 Y95.872 E41.39275
G1 X79.041 Y94.978 E41.43544
G1 X79.462 Y94.076 E41.47689
G1 X79.781 Y93.182 E41.51641
G1 X79.934 Y92.632 E41.54018
G1 X80.094 Y91.945 E41.56956
G1 X80.181 Y91.357 E41.59431
G1 X80.180 Y91.197 E41.60097
G1 X80.181 Y91.030 E41.60792
G1 X80.121 Y90.719 E41.62111
G1 X80.086 Y90.600 E41.62627
G1 X79.957 Y90.349 E41.63802
G1 X79.837 Y90.200 E41.64599
G1 X79.643 Y90.034 E41.65662
G1 X79.368 Y89.898 E41.66940
G1 X79.122 Y89.840 E41.67992
G1 X78.950 Y89.824 E41.68711
G1 X78.415 Y89.861 E41.70944
G1 X77.843 Y89.988 E41.73384
G1 X77.216 Y90.208 E41.76151
G1 F600 E40.26151
G1 Z0.525
G0 F10500 X49.015 Y124.529
G1 Z0.425
G1 F600 E41.76151
G1 F900 X47.143 Y124.416 E41.83959
G1 X45.294 Y124.078 E41.91786
G1 X43.497 Y123.518 E41.99623
G1 X41.792 Y122.751 E42.07408
G1 X40.190 Y121.782 E42.15203
G1 X38.706 Y120.619 E42.23054
G1 X37.378 Y119.291 E42.30874
G1 X36.221 Y117.815 E42.38683
G1 X35.253 Y116.214 E42.46473
G1 X34.481 Y114.496 E42.54315
G1 X34.041 Y113.081 E42.60485
G1 X33.923 Y112.711 E42.62102
G1 X33.657 Y111.247 E42.68298
G1 X33.583 Y110.854 E42.69963
G1 X33.471 Y108.988 E42.77747
G1 X33.471 Y47.013 E45.35798
G1 X33.584 Y45.143 E45.43598
G1 X33.922 Y43.294 E45.51425
G1 X34.483 Y41.497 E45.59263
G1 X35.249 Y39.792 E45.67046
G1 X36.218 Y38.190 E45.74842
G1 X37.381 Y36.706 E45.82692
G1 X38.709 Y35.378 E45.90512
G1 X40.185 Y34.221 E45.98321
G1 X41.786 Y33.253 E46.06111
G1 X43.504 Y32.481 E46.13953
G1 X44.919 Y32.041 E46.20124
G1 X45.289 Y31.923 E46.21741
G1 X46.753 Y31.657 E46.27936
G1 X47.146 Y31.583 E46.29601
G1 X49.015 Y31.471 E46.37397
G1 X110.986 Y31.471 E48.95432
G1 X112.857 Y31.584 E49.03237
G1 X114.706 Y31.922 E49.11063
G1 X116.503 Y32.483 E49.18902
G1 X118.208 Y33.249 E49.26684
G1 X119.810 Y34.218 E49.34480
G1 X121.294 Y35.381 E49.42331
G1 X122.622 Y36.709 E49.50151
G1 X123.779 Y38.185 E49.57959
G1 X124.747 Y39.786 E49.65749
G1 X125.520 Y41.504 E49.73594
G1 X126.078 Y43.293 E49.81397
G1 X126.343 Y44.753 E49.87575
G1 X126.417 Y45.146 E49.89240
G1 X126.529 Y47.013 E49.97028
G1 X126.529 Y113.425 E52.73554
G1 X126.417 Y115.011 E52.80174
G1 X126.078 Y116.561 E52.86780
G1 X125.527 Y118.038 E52.93344
G1 X124.766 Y119.433 E52.99961
G1 X123.817 Y120.701 E53.06556
G1 X122.701 Y121.817 E53.13127
G1 X121.693 Y122.570 E53.18366
G1 X121.431 Y122.768 E53.19733
G1 X120.041 Y123.526 E53.26326
G1 X118.865 Y123.964 E53.31551
G1 X118.559 Y124.079 E53.32912
G1 X117.331 Y124.345 E53.38144
G1 X117.007 Y124.417 E53.39526
G1 X115.425 Y124.529 E53.46129
G1 X49.015 Y124.529 E56.22647
G0 F10500 X48.992 Y123.681
;TYPE:SKIN
G1 F900 X34.317 Y109.006 E57.09061
G0 F10500 X34.315 Y108.120
G1 F900 X49.879 Y123.684 E58.00709
G0 F10500 X50.763 Y123.684
G1 F900 X34.315 Y107.236 E58.97563
G0 F10500 X34.315 Y106.352
G1 F900 X51.647 Y123.684 E59.99623
G0 F10500 X52.530 Y123.684
G1 F900 X34.315 Y105.468 E61.06885
G0 F10500 X34.315 Y104.584
G1 F900 X53.414 Y123.684 E62.19352
G0 F10500 X54.298 Y123.684
G1 F900 X34.315 Y103.700 E63.37025
G0 F10500 X34.315 Y102.816
G1 F900 X55.182 Y123.684 E64.59903
G0 F10500 X56.066 Y123.684
G1 F900 X34.315 Y101.932 E65.87986
G0 F10500 X34.315 Y101.049
G1 F900 X56.950 Y123.684 E67.21272
G0 F10500 X57.834 Y123.684
G1 F900 X34.315 Y100.165 E68.59764
G0 F10500 X34.374 Y109.947
G1 F900 X48.051 Y123.624 E69.40301
G0 F10500 X47.089 Y123.546
G1 F900 X34.452 Y110.908 E70.14717
G0 F10500 X34.649 Y111.990
G1 F900 X46.007 Y123.348 E70.81598
G0 F10500 X44.819 Y123.044
G1 F900 X34.953 Y113.178 E71.39694
G0 F10500 X35.422 Y114.530
G1 F900 X43.470 Y122.579 E71.87088
G0 F10500 X41.737 Y121.729
G1 F900 X36.265 Y116.257 E72.19310
G0 F10500 X34.315 Y99.281
G1 F900 X58.718 Y123.684 E73.63007
G0 F10500 X59.602 Y123.684
G1 F900 X34.315 Y98.397 E75.11909
G0 F10500 X34.315 Y97.513
G1 F900 X60.485 Y123.684 E76.66014
G0 F10500 X61.369 Y123.684
G1 F900 X34.315 Y96.629 E78.25324
G0 F10500 X34.315 Y95.745
G1 F900 X62.253 Y123.684 E79.89840
G0 F10500 X63.137 Y123.684
G1 F900 X34.315 Y94.861 E81.59561
G0 F10500 X34.315 Y93.978
G1 F900 X64.021 Y123.684 E83.34485
G0 F10500 X64.905 Y123.684
G1 F900 X34.315 Y93.094 E85.14614
G0 F10500 X34.315 Y92.210
G1 F900 X65.789 Y123.684 E86.99948
G0 F10500 X66.673 Y123.684
G1 F900 X34.315 Y91.326 E88.90488
G0 F10500 X34.315 Y90.442
G1 F900 X67.556 Y123.684 E90.86231
G0 F10500 X68.440 Y123.684
G1 F900 X34.315 Y89.558 E92.87179
G0 F10500 X34.315 Y88.674
G1 F900 X69.324 Y123.684 E94.93332
G0 F10500 X70.208 Y123.684
G1 F900 X34.315 Y87.790 E97.04690
G0 F10500 X34.315 Y86.906
G1 F900 X71.092 Y123.684 E99.21255
G0 F10500 X71.976 Y123.684
G1 F900 X34.315 Y86.023 E101.43021
G0 F10500 X34.315 Y85.139
G1 F900 X72.860 Y123.684 E103.69993
G0 F10500 X73.744 Y123.684
G1 F900 X34.315 Y84.255 E106.02171
G0 F10500 X34.315 Y83.371
G1 F900 X74.628 Y123.684 E108.39554
G0 F10500 X75.511 Y123.684
G1 F900 X34.315 Y82.487 E110.82139
G0 F10500 X34.315 Y81.603
G1 F900 X76.395 Y123.684 E113.29930
G0 F10500 X77.279 Y123.684
G1 F900 X34.315 Y80.719 E115.82926
G0 F10500 X34.315 Y79.835
G1 F900 X78.163 Y123.684 E118.41128
G0 F10500 X79.047 Y123.684
G1 F900 X34.315 Y78.952 E121.04532
G0 F10500 X34.315 Y78.068
G1 F900 X79.931 Y123.684 E123.73142
G0 F10500 X80.815 Y123.684
G1 F900 X34.315 Y77.184 E126.46957
G0 F10500 X34.315 Y76.300
G1 F900 X81.699 Y123.684 E129.25977
G0 F10500 X82.583 Y123.684
G1 F900 X34.315 Y75.416 E132.10203
G0 F10500 X34.315 Y74.532
G1 F900 X83.466 Y123.684 E134.99631
G0 F10500 X84.350 Y123.684
G1 F900 X34.315 Y73.648 E137.94265
G0 F10500 X34.315 Y72.764
G1 F900 X85.234 Y123.684 E140.94105
G0 F10500 X86.118 Y123.684
G1 F900 X34.315 Y71.880 E143.99149
G0 F10500 X34.315 Y70.997
G1 F900 X87.002 Y123.684 E147.09396
G0 F10500 X87.886 Y123.684
G1 F900 X34.315 Y70.113 E150.24849
G0 F10500 X34.315 Y69.229
G1 F900 X88.770 Y123.684 E153.45507
G0 F10500 X89.654 Y123.684
G1 F900 X34.315 Y68.345 E156.71370
G0 F10500 X34.315 Y67.461
G1 F900 X90.537 Y123.684 E160.02436
G0 F10500 X91.421 Y123.684
G1 F900 X34.315 Y66.577 E163.38708
G0 F10500 X34.315 Y65.693
G1 F900 X92.305 Y123.684 E166.80185
G0 F10500 X93.189 Y123.684
G1 F900 X70.734 Y101.228 E168.12414
G0 F10500 X71.864 Y101.475
G1 F900 X94.073 Y123.684 E169.43191
G0 F10500 X94.957 Y123.684
G1 F900 X72.614 Y101.341 E170.74758
G0 F10500 X73.262 Y101.105
G1 F900 X95.841 Y123.684 E172.07714
G0 F10500 X96.725 Y123.684
G1 F900 X73.864 Y100.823 E173.42331
G0 F10500 X74.450 Y100.525
G1 F900 X97.609 Y123.684 E174.78703
G0 F10500 X98.492 Y123.684
G1 F900 X75.031 Y100.223 E176.16853
G0 F10500 X71.532 Y101.132
G0 X69.863 Y100.358
G1 F900 X34.315 Y64.809 E178.26180
G0 F10500 X34.315 Y63.925
G1 F900 X69.606 Y99.216 E180.33991
G0 F10500 X69.658 Y98.385
G1 F900 X34.315 Y63.042 E182.42108
G0 F10500 X34.315 Y62.158
G1 F900 X69.783 Y97.626 E184.50961
G0 F10500 X69.937 Y96.896
G1 F900 X34.315 Y61.274 E186.60721
G0 F10500 X34.315 Y60.390
G1 F900 X70.128 Y96.203 E188.71606
G0 F10500 X70.353 Y95.544
G1 F900 X64.679 Y89.870 E189.05017
G0 F10500 X63.296 Y88.488
G1 F900 X34.315 Y59.506 E190.75675
G0 F10500 X34.315 Y58.622
G1 F900 X62.440 Y86.747 E192.41288
G0 F10500 X62.440 Y85.863
G1 F900 X34.315 Y57.738 E194.06902
G0 F10500 X34.315 Y56.854
G1 F900 X62.666 Y85.206 E195.73850
G0 F10500 X63.015 Y84.671
G1 F900 X34.315 Y55.971 E197.42850
G0 F10500 X34.315 Y55.087
G1 F900 X63.469 Y84.241 E199.14523
G0 F10500 X63.974 Y83.862
G1 F900 X34.315 Y54.203 E200.89170
G0 F10500 X34.315 Y53.319
G1 F900 X64.514 Y83.518 E202.66997
G0 F10500 X65.055 Y83.175
G1 F900 X34.315 Y52.435 E204.48009
G0 F10500 X34.315 Y51.551
G1 F900 X65.512 Y82.748 E206.31712
G0 F10500 X65.829 Y82.182
G1 F900 X34.315 Y50.667 E208.17285
G0 F10500 X34.315 Y49.783
G1 F900 X66.045 Y81.514 E210.04130
G0 F10500 X66.209 Y80.794
G1 F900 X34.315 Y48.899 E211.91941
G0 F10500 X34.315 Y48.016
G1 F900 X66.336 Y80.037 E213.80496
G0 F10500 X62.772 Y85.882
G0 X63.042 Y87.501
G0 X64.646 Y89.434
G0 X66.758 Y91.066
G1 F900 X70.615 Y94.922 E214.03205
G0 F10500 X70.928 Y94.352
G1 F900 X68.140 Y91.563 E214.19625
G0 F10500 X69.307 Y91.846
G1 F900 X71.265 Y93.804 E214.31155
G0 F10500 X71.639 Y93.295
G1 F900 X70.333 Y91.989 E214.38846
G0 F10500 X71.257 Y92.029
G1 F900 X72.249 Y92.579 E214.43447
G1 X72.107 Y91.995 E214.45950
G0 F10500 X70.094 Y97.762
G0 X70.048 Y99.934
G0 X70.956 Y100.974
G0 X72.711 Y100.972
G0 X76.904 Y98.681
G0 X79.186 Y96.422
G1 F900 X106.447 Y123.684 E216.06479
G0 F10500 X105.563 Y123.684
G1 F900 X78.836 Y96.957 E217.63861
G0 F10500 X78.472 Y97.476
G1 F900 X104.680 Y123.684 E219.18187
G0 F10500 X103.796 Y123.684
G1 F900 X78.074 Y97.962 E220.69651
G0 F10500 X77.657 Y98.429
G1 F900 X102.912 Y123.684 E222.18365
G0 F10500 X102.028 Y123.684
G1 F900 X77.200 Y98.856 E223.64564
G0 F10500 X76.699 Y99.239
G1 F900 X101.144 Y123.684 E225.08508
G0 F10500 X100.260 Y123.684
G1 F900 X76.169 Y99.593 E226.50368
G0 F10500 X75.610 Y99.917
G1 F900 X99.376 Y123.684 E227.90317
G0 F10500 X107.331 Y123.684
G1 F900 X79.511 Y95.863 E229.54138
G0 F10500 X79.824 Y95.293
G1 F900 X108.215 Y123.684 E231.21318
G0 F10500 X109.099 Y123.684
G1 F900 X80.106 Y94.690 E232.92046
G0 F10500 X80.361 Y94.062
G1 F900 X109.983 Y123.684 E234.66475
G0 F10500 X110.867 Y123.684
G1 F900 X80.593 Y93.410 E236.44744
G0 F10500 X80.780 Y92.713
G1 F900 X111.751 Y123.684 E238.27116
G0 F10500 X112.635 Y123.684
G1 F900 X80.939 Y91.988 E240.13758
G0 F10500 X81.023 Y91.189
G1 F900 X113.518 Y123.684 E242.05105
G0 F10500 X114.402 Y123.684
G1 F900 X81.991 Y91.272 E243.95960
G0 F10500 X83.175 Y91.573
G1 F900 X115.286 Y123.684 E245.85045
G0 F10500 X116.118 Y123.631
G1 F900 X84.222 Y91.736 E247.72862
G0 F10500 X85.171 Y91.801
G1 F900 X116.937 Y123.566 E249.59913
G0 F10500 X117.662 Y123.408
G1 F900 X86.047 Y91.793 E251.46077
G0 F10500 X86.867 Y91.729
G1 F900 X118.380 Y123.242 E253.31642
G0 F10500 X119.024 Y123.002
G1 F900 X87.636 Y91.614 E255.16470
G0 F10500 X88.356 Y91.450
G1 F900 X119.668 Y122.762 E257.00850
G0 F10500 X120.242 Y122.452
G1 F900 X89.053 Y91.264 E258.84504
G0 F10500 X89.704 Y91.031
G1 F900 X120.813 Y122.139 E260.67686
G0 F10500 X121.338 Y121.780
G1 F900 X90.327 Y90.769 E262.50294
G0 F10500 X90.926 Y90.484
G1 F900 X121.843 Y121.402 E264.32351
G0 F10500 X122.324 Y120.999
G1 F900 X91.488 Y90.163 E266.13929
G0 F10500 X92.017 Y89.808
G1 F900 X122.766 Y120.557 E267.94994
G0 F10500 X123.204 Y120.111
G1 F900 X92.529 Y89.436 E269.75624
G0 F10500 X93.003 Y89.026
G1 F900 X123.582 Y119.605 E271.55688
G0 F10500 X123.960 Y119.099
G1 F900 X93.451 Y88.591 E273.35338
G0 F10500 X93.883 Y88.139
G1 F900 X124.288 Y118.544 E275.14377
G0 F10500 X124.601 Y117.972
G1 F900 X94.277 Y87.649 E276.92937
G0 F10500 X94.647 Y87.135
G1 F900 X124.877 Y117.364 E278.70943
G0 F10500 X125.116 Y116.720
G1 F900 X95.004 Y86.608 E280.48258
G0 F10500 X95.324 Y86.044
G1 F900 X125.326 Y116.046 E282.24924
G0 F10500 X125.484 Y115.320
G1 F900 X95.633 Y85.469 E284.00702
G0 F10500 X95.907 Y84.859
G1 F900 X125.601 Y114.554 E285.75558
G0 F10500 X125.660 Y113.728
G1 F900 X96.167 Y84.235 E287.49227
G0 F10500 X96.402 Y83.587
G1 F900 X125.684 Y112.869 E289.21654
G0 F10500 X125.684 Y111.985
G1 F900 X96.604 Y82.905 E290.92892
G0 F10500 X96.800 Y82.217
G1 F900 X125.684 Y111.101 E292.62975
G0 F10500 X125.684 Y110.217
G1 F900 X96.948 Y81.481 E294.32187
G0 F10500 X97.090 Y80.739
G1 F900 X125.684 Y109.333 E296.00562
G0 F10500 X125.684 Y108.449
G1 F900 X97.191 Y79.956 E297.68343
G0 F10500 X97.268 Y79.149
G1 F900 X125.684 Y107.565 E299.35671
G0 F10500 X125.684 Y106.681
G1 F900 X97.315 Y78.312 E301.02721
G0 F10500 X97.326 Y77.439
G1 F900 X125.684 Y105.798 E302.69710
G0 F10500 X125.684 Y104.914
G1 F900 X97.279 Y76.508 E304.36976
G0 F10500 X97.200 Y75.545
G1 F900 X125.684 Y104.030 E306.04707
G0 F10500 X125.684 Y103.146
G1 F900 X97.081 Y74.543 E307.73135
G0 F10500 X96.875 Y73.452
G1 F900 X125.684 Y102.262 E309.42780
G0 F10500 X125.684 Y101.378
G1 F900 X96.604 Y72.298 E311.14017
G0 F10500 X96.249 Y71.059
G1 F900 X125.684 Y100.494 E312.87345
G0 F10500 X125.684 Y99.610
G1 F900 X95.806 Y69.732 E314.63282
G0 F10500 X95.204 Y68.247
G1 F900 X125.684 Y98.726 E316.42760
G0 F10500 X125.684 Y97.843
G1 F900 X94.371 Y66.530 E318.27147
G0 F10500 X93.138 Y64.413
G1 F900 X125.684 Y96.959 E320.18794
G0 F10500 X125.684 Y96.075
G1 F900 X61.924 Y32.315 E323.94244
G0 F10500 X61.040 Y32.315
G1 F900 X87.242 Y58.516 E325.48532
G0 F10500 X85.974 Y58.132
G1 F900 X60.157 Y32.315 E327.00555
G0 F10500 X62.808 Y32.315
G1 F900 X125.684 Y95.191 E330.70800
G0 F10500 X125.684 Y94.307
G1 F900 X63.692 Y32.315 E334.35839
G0 F10500 X64.576 Y32.315
G1 F900 X125.684 Y93.423 E337.95674
G0 F10500 X125.684 Y92.539
G1 F900 X65.460 Y32.315 E341.50302
G0 F10500 X66.344 Y32.315
G1 F900 X125.684 Y91.655 E344.99726
G0 F10500 X125.684 Y90.772
G1 F900 X67.228 Y32.315 E348.43947
G0 F10500 X68.112 Y32.315
G1 F900 X125.684 Y89.888 E351.82962
G0 F10500 X125.684 Y89.004
G1 F900 X68.995 Y32.315 E355.16775
G0 F10500 X69.879 Y32.315
G1 F900 X125.684 Y88.120 E358.45382
G0 F10500 X125.684 Y87.236
G1 F900 X70.763 Y32.315 E361.68784
G0 F10500 X71.647 Y32.315
G1 F900 X125.684 Y86.352 E364.86981
G0 F10500 X125.684 Y85.468
G1 F900 X72.531 Y32.315 E367.99972
G0 F10500 X73.415 Y32.315
G1 F900 X125.684 Y84.584 E371.07758
G0 F10500 X125.684 Y83.700
G1 F900 X74.299 Y32.315 E374.10338
G0 F10500 X75.183 Y32.315
G1 F900 X125.684 Y82.817 E377.07716
G0 F10500 X125.684 Y81.933
G1 F900 X76.067 Y32.315 E379.99889
G0 F10500 X76.950 Y32.315
G1 F900 X125.684 Y81.049 E382.86859
G0 F10500 X125.684 Y80.165
G1 F900 X77.834 Y32.315 E385.68623
G0 F10500 X78.718 Y32.315
G1 F900 X125.684 Y79.281 E388.45182
G0 F10500 X125.684 Y78.397
G1 F900 X79.602 Y32.315 E391.16536
G0 F10500 X80.486 Y32.315
G1 F900 X125.684 Y77.513 E393.82684
G0 F10500 X125.684 Y76.629
G1 F900 X81.370 Y32.315 E396.43627
G0 F10500 X82.254 Y32.315
G1 F900 X125.684 Y75.745 E398.99364
G0 F10500 X125.684 Y74.862
G1 F900 X83.138 Y32.315 E401.49899
G0 F10500 X84.021 Y32.315
G1 F900 X125.684 Y73.978 E403.95231
G0 F10500 X125.684 Y73.094
G1 F900 X84.905 Y32.315 E406.35358
G0 F10500 X85.789 Y32.315
G1 F900 X125.684 Y72.210 E408.70280
G0 F10500 X125.684 Y71.326
G1 F900 X86.673 Y32.315 E410.99996
G0 F10500 X87.557 Y32.315
G1 F900 X125.684 Y70.442 E413.24507
G0 F10500 X125.684 Y69.558
G1 F900 X88.441 Y32.315 E415.43812
G0 F10500 X89.325 Y32.315
G1 F900 X125.684 Y68.674 E417.57912
G0 F10500 X125.684 Y67.791
G1 F900 X90.209 Y32.315 E419.66809
G0 F10500 X91.093 Y32.315
G1 F900 X125.684 Y66.907 E421.70501
G0 F10500 X125.684 Y66.023
G1 F900 X91.976 Y32.315 E423.68990
G0 F10500 X92.860 Y32.315
G1 F900 X125.684 Y65.139 E425.62274
G0 F10500 X125.684 Y64.255
G1 F900 X93.744 Y32.315 E427.50353
G0 F10500 X94.628 Y32.315
G1 F900 X125.684 Y63.371 E429.33226
G0 F10500 X125.684 Y62.487
G1 F900 X95.512 Y32.315 E431.10894
G0 F10500 X96.396 Y32.315
G1 F900 X125.684 Y61.603 E432.83356
G0 F10500 X125.684 Y60.719
G1 F900 X97.280 Y32.315 E434.50613
G0 F10500 X98.164 Y32.315
G1 F900 X125.684 Y59.836 E436.12667
G0 F10500 X125.684 Y58.952
G1 F900 X99.047 Y32.315 E437.69519
G0 F10500 X99.931 Y32.315
G1 F900 X125.684 Y58.068 E439.21165
G0 F10500 X125.684 Y57.184
G1 F900 X100.815 Y32.315 E440.67606
G0 F10500 X101.699 Y32.315
G1 F900 X125.684 Y56.300 E442.08842
G0 F10500 X125.684 Y55.416
G1 F900 X102.583 Y32.315 E443.44872
G0 F10500 X103.467 Y32.315
G1 F900 X125.684 Y54.532 E444.75697
G0 F10500 X125.684 Y53.648
G1 F900 X104.351 Y32.315 E446.01316
G0 F10500 X105.235 Y32.315
G1 F900 X125.684 Y52.765 E447.21733
G0 F10500 X125.684 Y51.881
G1 F900 X106.119 Y32.315 E448.36944
G0 F10500 X107.002 Y32.315
G1 F900 X125.684 Y50.997 E449.46953
G0 F10500 X125.684 Y50.113
G1 F900 X107.886 Y32.315 E450.51756
G0 F10500 X108.770 Y32.315
G1 F900 X125.684 Y49.229 E451.51354
G0 F10500 X125.684 Y48.345
G1 F900 X109.654 Y32.315 E452.45747
G0 F10500 X110.538 Y32.315
G1 F900 X125.684 Y47.461 E453.34934
G0 F10500 X125.655 Y46.548
G1 F900 X111.451 Y32.344 E454.18574
G0 F10500 X112.392 Y32.401
G1 F900 X125.598 Y45.607 E454.96338
G0 F10500 X125.454 Y44.579
G1 F900 X113.420 Y32.546 E455.67197
G0 F10500 X114.502 Y32.743
G1 F900 X125.256 Y43.497 E456.30522
G0 F10500 X124.856 Y42.214
G1 F900 X115.785 Y33.143 E456.83936
G0 F10500 X117.288 Y33.762
G1 F900 X124.238 Y40.712 E457.24862
G0 F10500 X123.096 Y38.686
G1 F900 X119.317 Y34.907 E457.47114
G0 F10500 X84.975 Y58.018
G1 F900 X59.273 Y32.315 E458.98463
G0 F10500 X58.389 Y32.315
G1 F900 X84.113 Y58.040 E460.49942
G0 F10500 X83.339 Y58.149
G1 F900 X57.505 Y32.315 E462.02065
G0 F10500 X56.621 Y32.315
G1 F900 X82.616 Y58.310 E463.55137
G0 F10500 X81.936 Y58.514
G1 F900 X55.737 Y32.315 E465.09409
G0 F10500 X54.853 Y32.315
G1 F900 X81.296 Y58.757 E466.65116
G0 F10500 X80.658 Y59.004
G1 F900 X53.969 Y32.315 E468.22274
G0 F10500 X53.086 Y32.315
G1 F900 X80.023 Y59.253 E469.80895
G0 F10500 X79.359 Y59.472
G1 F900 X52.202 Y32.315 E471.40809
G0 F10500 X51.318 Y32.315
G1 F900 X78.585 Y59.582 E473.01371
G0 F10500 X77.682 Y59.563
G1 F900 X50.434 Y32.315 E474.61820
G0 F10500 X49.550 Y32.315
G1 F900 X76.818 Y59.583 E476.22388
G0 F10500 X75.568 Y59.217
G1 F900 X48.687 Y32.336 E477.80677
G0 F10500 X47.854 Y32.387
G1 F900 X74.278 Y58.810 E479.36271
G0 F10500 X72.739 Y58.155
G1 F900 X47.045 Y32.461 E480.87570
G0 F10500 X46.297 Y32.597
G1 F900 X71.713 Y58.013 E482.37232
G0 F10500 X70.898 Y58.083
G1 F900 X45.549 Y32.734 E483.86500
G0 F10500 X44.870 Y32.938
G1 F900 X70.181 Y58.249 E485.35543
G0 F10500 X69.517 Y58.469
G1 F900 X44.197 Y33.149 E486.84640
G0 F10500 X43.549 Y33.386
G1 F900 X68.892 Y58.728 E488.33869
G0 F10500 X68.304 Y59.024
G1 F900 X42.939 Y33.659 E489.83231
G0 F10500 X42.330 Y33.934
G1 F900 X67.761 Y59.365 E491.32981
G0 F10500 X67.238 Y59.726
G1 F900 X41.764 Y34.252 E492.82985
G0 F10500 X41.213 Y34.585
G1 F900 X66.741 Y60.113 E494.33306
G0 F10500 X66.280 Y60.536
G1 F900 X40.662 Y34.918 E495.84158
G0 F10500 X40.167 Y35.306
G1 F900 X65.835 Y60.974 E497.35304
G0 F10500 X65.424 Y61.447
G1 F900 X39.672 Y35.695 E498.86944
G0 F10500 X39.186 Y36.093
G1 F900 X65.019 Y61.926 E500.39062
G0 F10500 X64.642 Y62.433
G1 F900 X38.744 Y36.535 E501.91562
G0 F10500 X38.302 Y36.977
G1 F900 X64.283 Y62.958 E503.44551
G0 F10500 X63.945 Y63.504
G1 F900 X37.877 Y37.436 E504.98052
G0 F10500 X37.489 Y37.932
G1 F900 X63.621 Y64.064 E506.51931
G0 F10500 X63.319 Y64.645
G1 F900 X37.101 Y38.427 E508.06315
G0 F10500 X36.742 Y38.953
G1 F900 X63.030 Y65.240 E509.61109
G0 F10500 X62.762 Y65.856
G1 F900 X36.409 Y39.503 E511.16288
G0 F10500 X36.076 Y40.054
G1 F900 X62.506 Y66.484 E512.71921
G0 F10500 X62.263 Y67.125
G1 F900 X35.788 Y40.650 E514.27819
G0 F10500 X35.513 Y41.259
G1 F900 X62.042 Y67.788 E515.84035
G0 F10500 X61.821 Y68.451
G1 F900 X35.247 Y41.876 E517.40519
G0 F10500 X35.037 Y42.550
G1 F900 X61.624 Y69.138 E518.97079
G0 F10500 X61.450 Y69.848
G1 F900 X34.827 Y43.225 E520.53849
G0 F10500 X34.661 Y43.943
G1 F900 X61.386 Y70.668 E522.11219
G0 F10500 X62.791 Y72.366
G0 X64.112 Y73.394
G1 F900 X65.185 Y74.466 E522.17534
G0 F10500 X66.003 Y76.168
G1 F900 X34.525 Y44.690 E524.02892
G0 F10500 X34.410 Y45.459
G1 F900 X66.315 Y77.364 E525.90765
G0 F10500 X66.431 Y78.365
G1 F900 X34.359 Y46.292 E527.79624
G0 F10500 X34.315 Y47.132
G1 F900 X66.416 Y79.233 E529.68650
;LAYER:1
M106 S191
G0 F10500 X67.205 Y78.998 Z0.805
;TYPE:WALL-INNER
G1 F1140 X67.120 Y79.979 E529.71583
G1 X66.899 Y81.255 E529.75440
G1 X66.701 Y82.046 E529.77868
G1 X66.459 Y82.674 E529.79873
G1 X66.224 Y83.083 E529.81278
G1 X65.909 Y83.464 E529.82750
G1 X65.549 Y83.767 E529.84151
G1 X64.694 Y84.305 E529.87160
G1 X64.148 Y84.663 E529.89105
G1 X63.869 Y84.892 E529.90180
G1 X63.609 Y85.155 E529.91281
G1 X63.419 Y85.416 E529.92243
G1 X63.236 Y85.820 E529.93564
G1 X63.193 Y85.992 E529.94092
G1 X63.162 Y86.253 E529.94874
G1 X63.182 Y86.580 E529.95850
G1 X63.282 Y86.952 E529.96997
G1 X63.432 Y87.309 E529.98151
G1 X63.764 Y87.845 E530.00029
G1 X64.144 Y88.334 E530.01873
G1 X64.435 Y88.646 E530.03144
G1 X64.922 Y89.101 E530.05129
G1 X65.544 Y89.564 E530.07438
G1 X66.268 Y89.992 E530.09943
G1 X67.151 Y90.408 E530.12850
G1 X68.065 Y90.749 E530.15756
G1 X68.990 Y91.011 E530.18619
G1 X69.953 Y91.190 E530.21536
G1 X70.870 Y91.270 E530.24278
G1 X71.779 Y91.262 E530.26985
G1 X72.677 Y91.167 E530.29675
G1 X73.561 Y90.986 E530.32362
G1 X74.723 Y90.627 E530.35984
G1 X76.121 Y90.107 E530.40427
G1 X77.101 Y89.772 E530.43511
G1 X77.800 Y89.592 E530.45661
G1 X78.506 Y89.485 E530.47788
G1 X78.995 Y89.489 E530.49244
G1 X79.447 Y89.575 E530.50615
G1 X80.779 Y90.061 E530.54838
G1 X81.852 Y90.440 E530.58227
G1 X82.899 Y90.736 E530.61468
G1 X83.675 Y90.897 E530.63828
G1 X84.653 Y91.021 E530.66764
G1 X85.633 Y91.053 E530.69684
G1 X86.616 Y90.995 E530.72617
G1 X87.604 Y90.848 E530.75592
G1 X88.765 Y90.556 E530.79158
G1 X89.659 Y90.237 E530.81985
G1 X90.505 Y89.846 E530.84761
G1 X91.226 Y89.433 E530.87235
G1 X91.973 Y88.908 E530.89955
G1 X92.661 Y88.313 E530.92664
G1 X93.300 Y87.645 E530.95417
G1 X93.804 Y87.020 E530.97808
G1 X94.390 Y86.153 E531.00925
G1 X94.913 Y85.207 E531.04144
G1 X95.373 Y84.186 E531.07480
G1 X95.712 Y83.254 E531.10433
G1 X96.058 Y82.037 E531.14202
G1 X96.317 Y80.776 E531.18036
G1 X96.484 Y79.484 E531.21916
G1 X96.560 Y78.169 E531.25839
G1 X96.559 Y78.087 E531.26083
G1 X96.563 Y77.468 E531.27927
G1 X96.494 Y76.073 E531.32087
G1 X96.325 Y74.660 E531.36325
G1 X96.057 Y73.234 E531.40646
G1 X95.686 Y71.792 E531.45081
G1 X95.126 Y70.088 E531.50423
G1 X94.536 Y68.621 E531.55132
G1 X93.867 Y67.203 E531.59802
G1 X93.130 Y65.845 E531.64404
G1 X92.625 Y65.015 E531.67298
G1 X91.798 Y63.800 E531.71675
G1 X90.903 Y62.648 E531.76020
G1 X89.945 Y61.565 E531.80326
G1 X89.473 Y61.079 E531.82344
G1 X88.837 Y60.478 E531.84950
G1 X88.212 Y59.966 E531.87357
G1 X87.586 Y59.544 E531.89605
G1 X86.849 Y59.174 E531.92061
G1 X86.249 Y58.973 E531.93946
G1 X85.686 Y58.852 E531.95661
G1 X84.987 Y58.782 E531.97753
G1 X84.258 Y58.794 E531.99925
G1 X83.735 Y58.854 E532.01493
G1 X83.025 Y58.987 E532.03644
G1 X82.170 Y59.243 E532.06302
G1 X80.887 Y59.741 E532.10401
G1 X80.048 Y60.064 E532.13079
G1 X79.336 Y60.276 E532.15291
G1 X78.889 Y60.347 E532.16639
G1 X78.394 Y60.348 E532.18114
G1 X77.679 Y60.329 E532.20244
G1 X76.802 Y60.348 E532.22856
G1 X76.636 Y60.332 E532.23353
G1 X76.168 Y60.222 E532.24785
G1 X75.435 Y59.973 E532.27091
G1 X74.485 Y59.716 E532.30022
G1 X74.198 Y59.617 E532.30926
G1 X73.734 Y59.401 E532.32450
G1 X72.870 Y58.991 E532.35299
G1 X72.407 Y58.852 E532.36738
G1 X72.138 Y58.805 E532.37552
G1 X71.640 Y58.776 E532.39037
G1 X70.846 Y58.863 E532.41416
G1 X70.129 Y59.055 E532.43627
G1 X69.369 Y59.347 E532.46052
G1 X68.660 Y59.702 E532.48414
G1 X67.901 Y60.181 E532.51087
G1 X67.173 Y60.746 E532.53831
G1 X66.477 Y61.402 E532.56680
G1 X66.097 Y61.820 E532.58362
G1 X65.462 Y62.593 E532.61342
G1 X64.792 Y63.567 E532.64863
G1 X64.169 Y64.646 E532.68574
G1 X63.621 Y65.772 E532.72303
G1 X63.067 Y67.133 E532.76680
G1 X62.564 Y68.642 E532.81417
G1 X62.402 Y69.196 E532.83136
G1 X62.257 Y69.730 E532.84784
G1 X62.159 Y70.195 E532.86200
G1 X62.138 Y70.471 E532.87024
G1 X62.161 Y70.753 E532.87867
G1 X62.219 Y71.017 E532.88672
G1 X62.328 Y71.269 E532.89489
G1 X62.478 Y71.505 E532.90322
G1 X62.728 Y71.776 E532.91420
G1 X63.079 Y72.034 E532.92718
G1 X63.529 Y72.278 E532.94242
G1 X64.167 Y72.566 E532.96327
G1 X64.645 Y72.808 E532.97923
G1 X65.019 Y73.077 E532.99295
G1 X65.485 Y73.561 E533.01296
G1 X65.839 Y74.070 E533.03143
G1 X66.407 Y75.134 E533.06735
G1 X66.742 Y75.959 E533.09387
G1 X66.992 Y76.805 E533.12014
G1 X67.091 Y77.295 E533.13503
G1 X67.193 Y78.088 E533.15884
G1 X67.205 Y78.998 E533.18595
G0 F10500 X63.213 Y86.255
G0 X63.806 Y87.816
G0 X66.292 Y89.946
G0 X69.960 Y91.140
G0 X73.548 Y90.937
G0 X74.602 Y91.521
G1 F1140 X73.825 Y92.112 E533.21502
G1 X73.108 Y92.770 E533.24401
G1 X72.366 Y93.597 E533.27710
G1 X71.860 Y94.284 E533.30251
G1 X71.434 Y94.994 E533.32717
G1 X70.961 Y96.080 E533.36245
G1 X70.705 Y96.964 E533.38986
G1 X70.519 Y97.841 E533.41656
G1 X70.392 Y98.635 E533.44051
G1 X70.391 Y98.676 E533.44173
G1 X70.367 Y98.930 E533.44933
G1 X70.369 Y99.012 E533.45178
G1 X70.368 Y99.353 E533.46193
G1 X70.452 Y99.793 E533.47527
G1 X70.597 Y100.103 E533.48547
G1 X70.743 Y100.292 E533.49258
G1 X70.969 Y100.492 E533.50157
G1 X71.322 Y100.654 E533.51313
G1 X71.625 Y100.711 E533.52232
G1 X71.685 Y100.707 E533.52411
G1 X71.815 Y100.714 E533.52799
G1 X72.199 Y100.662 E533.53953
G1 X72.635 Y100.536 E533.55304
G1 X73.173 Y100.318 E533.57033
G1 X74.305 Y99.743 E533.60815
G1 X75.341 Y99.195 E533.64305
G1 X75.992 Y98.810 E533.66558
G1 X76.628 Y98.346 E533.68903
G1 X77.187 Y97.824 E533.71181
G1 X77.739 Y97.184 E533.73698
G1 X78.101 Y96.684 E533.75536
G1 X78.606 Y95.913 E533.78281
G1 X79.112 Y95.013 E533.81356
G1 X79.536 Y94.106 E533.84338
G1 X79.855 Y93.209 E533.87174
G1 X80.011 Y92.653 E533.88894
G1 X80.173 Y91.956 E533.91025
G1 X80.263 Y91.353 E533.92841
G1 X80.260 Y91.291 E533.93026
G1 X80.261 Y91.035 E533.93788
G1 X80.221 Y90.751 E533.94642
G1 X80.152 Y90.551 E533.95273
G1 X80.032 Y90.313 E533.96066
G1 X79.893 Y90.141 E533.96725
G1 X79.724 Y89.990 E533.97400
G1 X79.419 Y89.830 E533.98426
G1 X79.175 Y89.767 E533.99176
G1 X78.949 Y89.743 E533.99853
G1 X78.569 Y89.762 E534.00986
G1 X77.830 Y89.909 E534.03231
G1 X77.189 Y90.132 E534.05252
G1 X76.340 Y90.511 E534.08021
G1 X75.441 Y90.988 E534.11052
G1 X74.602 Y91.521 E534.14013
G0 F10500 X71.902 Y94.313
G0 X49.041 Y124.290
G1 F1140 X47.167 Y124.177 E534.19604
G1 X45.348 Y123.843 E534.25112
G1 X43.588 Y123.295 E534.30602
G1 X41.901 Y122.536 E534.36112
G1 X40.315 Y121.576 E534.41633
G1 X38.867 Y120.442 E534.47111
G1 X37.558 Y119.133 E534.52625
G1 X36.424 Y117.685 E534.58103
G1 X35.464 Y116.099 E534.63624
G1 X34.705 Y114.412 E534.69134
G1 X34.157 Y112.652 E534.74624
G1 X33.823 Y110.833 E534.80132
G1 X33.710 Y108.960 E534.85720
G1 X33.710 Y47.041 E536.70136
G1 X33.823 Y45.167 E536.75728
G1 X34.157 Y43.348 E536.81236
G1 X34.705 Y41.588 E536.86726
G1 X35.464 Y39.901 E536.92236
G1 X36.424 Y38.315 E536.97757
G1 X37.558 Y36.867 E537.03235
G1 X38.867 Y35.558 E537.08748
G1 X40.315 Y34.424 E537.14226
G1 X41.901 Y33.464 E537.19748
G1 X43.588 Y32.705 E537.25257
G1 X45.348 Y32.157 E537.30747
G1 X47.167 Y31.823 E537.36256
G1 X49.041 Y31.710 E537.41847
G1 X110.960 Y31.710 E539.26263
G1 X112.833 Y31.823 E539.31851
G1 X114.652 Y32.157 E539.37360
G1 X116.412 Y32.705 E539.42850
G1 X118.099 Y33.464 E539.48359
G1 X119.685 Y34.424 E539.53881
G1 X121.133 Y35.558 E539.59359
G1 X122.442 Y36.867 E539.64872
G1 X123.576 Y38.315 E539.70350
G1 X124.536 Y39.901 E539.75871
G1 X125.295 Y41.588 E539.81381
G1 X125.843 Y43.348 E539.86871
G1 X126.177 Y45.167 E539.92379
G1 X126.290 Y47.041 E539.97971
G1 X126.290 Y113.408 E541.95634
G1 X126.178 Y114.977 E542.00319
G1 X125.849 Y116.487 E542.04922
G1 X125.303 Y117.949 E542.09570
G1 X124.566 Y119.299 E542.14151
G1 X123.634 Y120.545 E542.18785
G1 X122.545 Y121.634 E542.23372
G1 X121.298 Y122.567 E542.28011
G1 X119.949 Y123.303 E542.32587
G1 X118.487 Y123.849 E542.37235
G1 X116.977 Y124.178 E542.41838
G1 X115.408 Y124.290 E542.46523
G1 X49.041 Y124.290 E544.44187
G0 F10500 X49.028 Y124.790
;TYPE:WALL-OUTER
G1 F1080 X47.104 Y124.674 E544.49927
G1 X45.232 Y124.330 E544.55596
G1 X43.409 Y123.763 E544.61282
G1 X41.666 Y122.978 E544.66976
G1 X40.037 Y121.993 E544.72645
G1 X38.536 Y120.817 E544.78324
G1 X37.183 Y119.464 E544.84023
G1 X36.007 Y117.963 E544.89702
G1 X35.022 Y116.334 E544.95372
G1 X34.237 Y114.591 E545.01066
G1 X33.670 Y112.768 E545.06752
G1 X33.326 Y110.896 E545.12420
G1 X33.210 Y108.973 E545.18158
G1 X33.210 Y47.028 E547.02651
G1 X33.326 Y45.104 E547.08392
G1 X33.670 Y43.232 E547.14061
G1 X34.237 Y41.409 E547.19747
G1 X35.022 Y39.666 E547.25440
G1 X36.007 Y38.037 E547.31110
G1 X37.183 Y36.536 E547.36789
G1 X38.536 Y35.183 E547.42488
G1 X40.037 Y34.007 E547.48167
G1 X41.666 Y33.022 E547.53837
G1 X43.409 Y32.237 E547.59530
G1 X45.232 Y31.670 E547.65216
G1 X47.104 Y31.326 E547.70885
G1 X49.028 Y31.210 E547.76626
G1 X110.973 Y31.210 E549.61119
G1 X112.896 Y31.326 E549.66857
G1 X114.768 Y31.670 E549.72526
G1 X116.591 Y32.237 E549.78212
G1 X118.334 Y33.022 E549.83905
G1 X119.963 Y34.007 E549.89575
G1 X121.464 Y35.183 E549.95254
G1 X122.817 Y36.536 E550.00953
G1 X123.993 Y38.037 E550.06632
G1 X124.978 Y39.666 E550.12302
G1 X125.763 Y41.409 E550.17995
G1 X126.330 Y43.232 E550.23681
G1 X126.674 Y45.104 E550.29350
G1 X126.790 Y47.028 E550.35091
G1 X126.790 Y113.433 E552.32867
G1 X126.674 Y115.049 E552.37693
G1 X126.330 Y116.630 E552.42512
G1 X125.761 Y118.153 E552.47354
G1 X124.987 Y119.571 E552.52165
G1 X124.017 Y120.868 E552.56989
G1 X122.868 Y122.017 E552.61829
G1 X121.571 Y122.987 E552.66652
G1 X120.153 Y123.761 E552.71464
G1 X118.630 Y124.330 E552.76306
G1 X117.049 Y124.674 E552.81125
G1 X115.429 Y124.790 E552.85962
G1 X49.028 Y124.790 E554.83727
G0 F10500 X49.036 Y124.440
G0 X70.878 Y100.210
G0 X71.110 Y99.949
G1 F1080 X71.245 Y100.069 E554.84265
G1 X71.475 Y100.174 E554.85018
G1 X71.654 Y100.208 E554.85561
G1 X71.681 Y100.206 E554.85641
G1 X71.796 Y100.212 E554.85984
G1 X72.096 Y100.171 E554.86886
G1 X72.472 Y100.063 E554.88051
G1 X72.966 Y99.863 E554.89638
G1 X74.075 Y99.299 E554.93344
G1 X75.097 Y98.758 E554.96788
G1 X75.717 Y98.392 E554.98932
G1 X76.309 Y97.960 E555.01115
G1 X76.826 Y97.477 E555.03222
G1 X77.346 Y96.873 E555.05596
G1 X77.690 Y96.400 E555.07338
G1 X78.179 Y95.654 E555.09995
G1 X78.667 Y94.784 E555.12966
G1 X79.073 Y93.916 E555.15820
G1 X79.378 Y93.058 E555.18532
G1 X79.526 Y92.529 E555.20168
G1 X79.682 Y91.862 E555.22208
G1 X79.762 Y91.326 E555.23822
G1 X79.760 Y91.288 E555.23935
G1 X79.761 Y91.069 E555.24587
G1 X79.735 Y90.884 E555.25144
G1 X79.687 Y90.739 E555.25599
G1 X79.609 Y90.586 E555.26110
G1 X79.530 Y90.487 E555.26488
G1 X79.437 Y90.404 E555.26859
G1 X79.238 Y90.299 E555.27529
G1 X78.935 Y90.244 E555.28446
G1 X78.630 Y90.259 E555.29356
G1 X77.962 Y90.392 E555.31384
G1 X77.374 Y90.597 E555.33239
G1 X76.559 Y90.961 E555.35897
G1 X75.692 Y91.421 E555.38820
G1 X74.888 Y91.932 E555.41658
G1 X74.146 Y92.496 E555.44434
G1 X73.464 Y93.122 E555.47191
G1 X72.754 Y93.913 E555.50356
G1 X72.277 Y94.561 E555.52753
G1 X71.879 Y95.223 E555.55053
G1 X71.432 Y96.250 E555.58389
G1 X71.190 Y97.085 E555.60979
G1 X71.011 Y97.932 E555.63557
G1 X70.891 Y98.684 E555.65825
G1 X70.890 Y98.711 E555.65906
G1 X70.868 Y98.947 E555.66611
G1 X70.869 Y98.990 E555.66740
G1 X70.868 Y99.306 E555.67681
G1 X70.931 Y99.638 E555.68687
G1 X71.026 Y99.841 E555.69355
G1 X71.110 Y99.949 E555.69762
G0 F10500 X70.878 Y100.210
G0 X70.419 Y98.992
G0 X70.860 Y91.117
G0 X70.889 Y90.770
G1 F1080 X71.750 Y90.762 E555.72327
G1 X72.600 Y90.672 E555.74872
G1 X73.437 Y90.501 E555.77417
G1 X74.562 Y90.154 E555.80923
G1 X75.960 Y89.633 E555.85367
G1 X76.961 Y89.292 E555.88516
G1 X77.707 Y89.100 E555.90810
G1 X78.460 Y88.986 E555.93079
G1 X78.506 Y88.985 E555.93216
G1 X79.043 Y88.990 E555.94815
G1 X79.583 Y89.092 E555.96452
G1 X80.948 Y89.590 E556.00779
G1 X82.003 Y89.963 E556.04112
G1 X83.018 Y90.250 E556.07254
G1 X83.758 Y90.404 E556.09505
G1 X84.692 Y90.522 E556.12309
G1 X85.626 Y90.552 E556.15092
G1 X86.565 Y90.497 E556.17893
G1 X87.506 Y90.357 E556.20727
G1 X88.620 Y90.077 E556.24148
G1 X89.470 Y89.774 E556.26836
G1 X90.275 Y89.401 E556.29478
G1 X90.957 Y89.010 E556.31819
G1 X91.665 Y88.513 E556.34396
G1 X92.316 Y87.950 E556.36959
G1 X92.924 Y87.315 E556.39578
G1 X93.401 Y86.723 E556.41842
G1 X93.963 Y85.892 E556.44830
G1 X94.466 Y84.983 E556.47924
G1 X94.910 Y83.997 E556.51145
G1 X95.236 Y83.100 E556.53987
G1 X95.572 Y81.918 E556.57647
G1 X95.824 Y80.693 E556.61372
G1 X95.986 Y79.437 E556.65144
G1 X96.060 Y78.158 E556.68959
G1 X96.059 Y78.084 E556.69180
G1 X96.063 Y77.479 E556.70982
G1 X95.995 Y76.115 E556.75049
G1 X95.830 Y74.736 E556.79186
G1 X95.568 Y73.343 E556.83407
G1 X95.206 Y71.933 E556.87743
G1 X94.656 Y70.259 E556.92991
G1 X94.077 Y68.821 E556.97608
G1 X93.421 Y67.429 E557.02191
G1 X92.697 Y66.094 E557.06714
G1 X92.204 Y65.286 E557.09533
G1 X91.393 Y64.095 E557.13825
G1 X90.518 Y62.967 E557.18076
G1 X89.578 Y61.905 E557.22300
G1 X89.122 Y61.435 E557.24251
G1 X88.506 Y60.853 E557.26775
G1 X87.913 Y60.367 E557.29058
G1 X87.333 Y59.977 E557.31140
G1 X86.656 Y59.637 E557.33396
G1 X86.116 Y59.456 E557.35093
G1 X85.609 Y59.347 E557.36637
G1 X84.966 Y59.283 E557.38562
G1 X84.291 Y59.293 E557.40572
G1 X83.810 Y59.349 E557.42014
G1 X83.143 Y59.474 E557.44036
G1 X82.332 Y59.716 E557.46556
G1 X80.216 Y60.535 E557.53314
G1 X79.445 Y60.765 E557.55710
G1 X78.931 Y60.847 E557.57261
G1 X78.382 Y60.848 E557.58896
G1 X77.678 Y60.829 E557.60993
G1 X76.789 Y60.849 E557.63642
G1 X76.549 Y60.825 E557.64360
G1 X76.035 Y60.705 E557.65932
G1 X75.289 Y60.452 E557.68278
G1 X74.340 Y60.195 E557.71206
G1 X74.016 Y60.083 E557.72227
G1 X73.523 Y59.854 E557.73846
G1 X72.690 Y59.459 E557.76592
G1 X72.292 Y59.339 E557.77830
G1 X72.080 Y59.302 E557.78471
G1 X71.653 Y59.277 E557.79745
G1 X70.939 Y59.356 E557.81885
G1 X70.284 Y59.531 E557.83904
G1 X69.571 Y59.805 E557.86179
G1 X68.906 Y60.138 E557.88394
G1 X68.188 Y60.591 E557.90922
G1 X67.498 Y61.127 E557.93525
G1 X66.834 Y61.753 E557.96243
G1 X66.476 Y62.147 E557.97828
G1 X65.862 Y62.894 E558.00708
G1 X65.215 Y63.834 E558.04107
G1 X64.611 Y64.881 E558.07707
G1 X64.078 Y65.976 E558.11334
G1 X63.536 Y67.306 E558.15611
G1 X63.041 Y68.791 E558.20273
G1 X62.883 Y69.332 E558.21952
G1 X62.743 Y69.847 E558.23541
G1 X62.655 Y70.266 E558.24817
G1 X62.639 Y70.470 E558.25426
G1 X62.656 Y70.678 E558.26048
G1 X62.697 Y70.862 E558.26609
G1 X62.771 Y71.034 E558.27167
G1 X62.876 Y71.199 E558.27749
G1 X63.063 Y71.401 E558.28569
G1 X63.348 Y71.611 E558.29623
G1 X63.752 Y71.830 E558.30992
G1 X64.372 Y72.110 E558.33018
G1 X64.909 Y72.381 E558.34810
G1 X65.347 Y72.697 E558.36418
G1 X65.872 Y73.243 E558.38674
G1 X66.266 Y73.808 E558.40726
G1 X66.861 Y74.922 E558.44487
G1 X67.214 Y75.793 E558.47286
G1 X67.479 Y76.688 E558.50066
G1 X67.585 Y77.215 E558.51667
G1 X67.692 Y78.054 E558.54186
G1 X67.705 Y79.014 E558.57046
G1 X67.616 Y80.048 E558.60137
G1 X67.390 Y81.353 E558.64081
G1 X67.178 Y82.199 E558.66679
G1 X66.913 Y82.886 E558.68872
G1 X66.634 Y83.372 E558.70541
G1 X66.264 Y83.819 E558.72269
G1 X65.849 Y84.169 E558.73886
G1 X64.964 Y84.726 E558.77001
G1 X64.445 Y85.066 E558.78849
G1 X64.206 Y85.262 E558.79769
G1 X63.991 Y85.480 E558.80681
G1 X63.854 Y85.669 E558.81376
G1 X63.710 Y85.986 E558.82413
G1 X63.664 Y86.267 E558.83261
G1 X63.678 Y86.499 E558.83954
G1 X63.756 Y86.790 E558.84851
G1 X63.877 Y87.079 E558.85784
G1 X64.175 Y87.559 E558.87467
G1 X64.525 Y88.009 E558.89165
G1 X64.789 Y88.292 E558.90317
G1 X65.243 Y88.717 E558.92170
G1 X65.821 Y89.147 E558.94315
G1 X66.502 Y89.549 E558.96670
G1 X67.346 Y89.947 E558.99450
G1 X68.221 Y90.274 E559.02232
G1 X69.104 Y90.524 E559.04965
G1 X70.020 Y90.694 E559.07740
G1 X70.889 Y90.770 E559.10338
G0 F10500 X70.839 Y91.441
;TYPE:SKIN
G1 F1380 X40.684 Y121.596 E560.37351
G0 F10500 X40.261 Y121.312
G1 F1380 X70.188 Y91.385 E561.63403
G0 F10500 X69.571 Y91.295
G1 F1380 X39.865 Y121.001 E562.88525
G0 F10500 X39.468 Y120.691
G1 F1380 X68.974 Y91.184 E564.12807
G0 F10500 X68.421 Y91.030
G1 F1380 X39.072 Y120.379 E565.36425
G0 F10500 X38.709 Y120.035
G1 F1380 X67.879 Y90.866 E566.59287
G0 F10500 X67.364 Y90.673
G1 F1380 X38.356 Y119.682 E567.81471
G0 F10500 X38.002 Y119.328
G1 F1380 X66.865 Y90.465 E569.03042
G0 F10500 X66.385 Y90.238
G1 F1380 X37.654 Y118.970 E570.24060
G0 F10500 X37.343 Y118.573
G1 F1380 X65.925 Y89.991 E571.44447
G0 F10500 X65.481 Y89.728
G1 F1380 X37.032 Y118.177 E572.64274
G0 F10500 X36.721 Y117.781
G1 F1380 X65.072 Y89.429 E573.83691
G0 F10500 X64.681 Y89.114
G1 F1380 X36.432 Y117.362 E575.02674
G0 F10500 X36.166 Y116.922
G1 F1380 X64.315 Y88.773 E576.21238
G0 F10500 X63.977 Y88.403
G1 F1380 X35.899 Y116.481 E577.39503
G0 F10500 X35.633 Y116.041
G1 F1380 X63.667 Y88.007 E578.57582
G0 F10500 X63.391 Y87.575
G1 F1380 X35.411 Y115.555 E579.75434
G0 F10500 X35.192 Y115.067
G1 F1380 X63.155 Y87.104 E580.93214
G0 F10500 X63.004 Y86.548
G1 F1380 X34.973 Y114.579 E582.11281
G0 F10500 X34.781 Y114.064
G1 F1380 X63.065 Y85.780 E583.30413
G0 F10500 X64.840 Y84.005
G1 F1380 X66.332 Y82.512 E583.36700
G0 F10500 X66.661 Y81.477
G1 F1380 X34.612 Y113.525 E584.71688
G0 F10500 X34.445 Y112.986
G1 F1380 X66.835 Y80.596 E586.08115
G0 F10500 X63.243 Y86.001
G0 X63.806 Y87.816
G0 X66.292 Y89.946
G0 X69.960 Y91.140
G0 X71.550 Y91.438
G1 F1380 X41.125 Y121.862 E587.36263
G0 F10500 X41.565 Y122.129
G1 F1380 X72.315 Y91.380 E588.65780
G0 F10500 X73.155 Y91.246
G1 F1380 X42.009 Y122.393 E589.96970
G0 F10500 X42.497 Y122.612
G1 F1380 X74.111 Y90.997 E591.30130
G0 F10500 X74.243 Y91.573
G1 F1380 X75.169 Y90.646 E591.34032
G0 F10500 X71.948 Y93.868
G1 F1380 X42.985 Y122.831 E592.56025
G0 F10500 X43.472 Y123.050
G1 F1380 X71.020 Y95.503 E593.72055
G0 F10500 X70.625 Y96.605
G1 F1380 X43.993 Y123.237 E594.84229
G0 F10500 X44.532 Y123.404
G1 F1380 X70.403 Y97.534 E595.93196
G0 F10500 X70.252 Y98.392
G1 F1380 X45.071 Y123.573 E596.99258
G0 F10500 X45.634 Y123.717
G1 F1380 X70.193 Y99.158 E598.02701
G0 F10500 X70.272 Y99.786
G1 F1380 X46.232 Y123.827 E599.03960
G0 F10500 X46.828 Y123.937
G1 F1380 X70.500 Y100.265 E600.03666
G0 F10500 X70.852 Y100.621
G1 F1380 X47.454 Y124.018 E601.02217
G0 F10500 X48.121 Y124.059
G1 F1380 X71.345 Y100.834 E602.00039
G0 F10500 X72.026 Y100.861
G1 F1380 X48.788 Y124.098 E602.97915
G0 F10500 X49.480 Y124.114
G1 F1380 X73.031 Y100.563 E603.97112
G0 F10500 X74.425 Y99.876
G1 F1380 X50.187 Y124.114 E604.99203
G0 F10500 X50.894 Y124.114
G1 F1380 X76.002 Y99.006 E606.04958
G0 F10500 X78.281 Y96.727
G1 F1380 X83.907 Y91.101 E606.28654
G0 F10500 X83.304 Y90.997
G1 F1380 X79.319 Y94.982 E606.45439
G0 F10500 X79.850 Y93.744
G1 F1380 X82.726 Y90.868 E606.57553
G0 F10500 X82.175 Y90.711
G1 F1380 X80.176 Y92.711 E606.65975
G0 F10500 X80.373 Y91.807
G1 F1380 X81.634 Y90.546 E606.71286
G0 F10500 X81.112 Y90.360
G1 F1380 X80.369 Y90.749 E606.74134
G1 X80.591 Y90.174 E606.75970
G0 F10500 X84.534 Y91.181
G1 F1380 X51.601 Y124.114 E608.14684
G0 F10500 X52.308 Y124.114
G1 F1380 X85.209 Y91.213 E609.53263
G0 F10500 X85.919 Y91.210
G1 F1380 X53.016 Y124.114 E610.91852
G0 F10500 X53.723 Y124.114
G1 F1380 X86.675 Y91.162 E612.30647
G0 F10500 X87.505 Y91.038
G1 F1380 X54.430 Y124.114 E613.69961
G0 F10500 X55.137 Y124.114
G1 F1380 X88.432 Y90.819 E615.10199
G0 F10500 X89.468 Y90.490
G1 F1380 X55.844 Y124.114 E616.51824
G0 F10500 X56.551 Y124.114
G1 F1380 X90.772 Y89.893 E617.95963
G0 F10500 X94.683 Y85.982
G1 F1380 X126.113 Y54.551 E619.28348
G0 F10500 X126.113 Y55.258
G1 F1380 X57.258 Y124.114 E622.18368
G0 F10500 X57.965 Y124.114
G1 F1380 X126.113 Y55.966 E625.05408
G0 F10500 X126.113 Y56.673
G1 F1380 X58.672 Y124.114 E627.89470
G0 F10500 X59.379 Y124.114
G1 F1380 X126.113 Y57.380 E630.70554
G0 F10500 X126.113 Y58.087
G1 F1380 X60.087 Y124.114 E633.48658
G0 F10500 X60.794 Y124.114
G1 F1380 X126.113 Y58.794 E636.23784
G0 F10500 X126.113 Y59.501
G1 F1380 X61.501 Y124.114 E638.95932
G0 F10500 X62.208 Y124.114
G1 F1380 X126.113 Y60.208 E641.65103
G0 F10500 X126.113 Y60.915
G1 F1380 X62.915 Y124.114 E644.31295
G0 F10500 X63.622 Y124.114
G1 F1380 X126.113 Y61.622 E646.94510
G0 F10500 X126.113 Y62.330
G1 F1380 X64.329 Y124.114 E649.54744
G0 F10500 X65.036 Y124.114
G1 F1380 X126.113 Y63.037 E652.12001
G0 F10500 X126.113 Y63.744
G1 F1380 X65.743 Y124.114 E654.66280
G0 F10500 X66.451 Y124.114
G1 F1380 X126.113 Y64.451 E657.17579
G0 F10500 X126.113 Y65.158
G1 F1380 X67.158 Y124.114 E659.65900
G0 F10500 X67.865 Y124.114
G1 F1380 X126.113 Y65.865 E662.11243
G0 F10500 X126.113 Y66.572
G1 F1380 X68.572 Y124.114 E664.53608
G0 F10500 X69.279 Y124.114
G1 F1380 X126.113 Y67.279 E666.92995
G0 F10500 X126.113 Y67.986
G1 F1380 X69.986 Y124.114 E669.29405
G0 F10500 X70.693 Y124.114
G1 F1380 X126.113 Y68.694 E671.62834
G0 F10500 X126.113 Y69.401
G1 F1380 X71.400 Y124.114 E673.93285
G0 F10500 X72.107 Y124.114
G1 F1380 X126.113 Y70.108 E676.20759
G0 F10500 X126.113 Y70.815
G1 F1380 X72.815 Y124.114 E678.45253
G0 F10500 X73.522 Y124.114
G1 F1380 X126.113 Y71.522 E680.66768
G0 F10500 X126.113 Y72.229
G1 F1380 X74.229 Y124.114 E682.85306
G0 F10500 X74.936 Y124.114
G1 F1380 X126.113 Y72.936 E685.00866
G0 F10500 X126.113 Y73.643
G1 F1380 X75.643 Y124.114 E687.13448
G0 F10500 X76.350 Y124.114
G1 F1380 X126.113 Y74.350 E689.23052
G0 F10500 X126.113 Y75.057
G1 F1380 X77.057 Y124.114 E691.29679
G0 F10500 X77.764 Y124.114
G1 F1380 X126.113 Y75.765 E693.33325
G0 F10500 X126.113 Y76.472
G1 F1380 X78.471 Y124.114 E695.33993
G0 F10500 X79.178 Y124.114
G1 F1380 X126.113 Y77.179 E697.31684
G0 F10500 X126.113 Y77.886
G1 F1380 X79.886 Y124.114 E699.26394
G0 F10500 X80.593 Y124.114
G1 F1380 X126.113 Y78.593 E701.18127
G0 F10500 X126.113 Y79.300
G1 F1380 X81.300 Y124.114 E703.06882
G0 F10500 X82.007 Y124.114
G1 F1380 X126.113 Y80.007 E704.92659
G0 F10500 X126.113 Y80.714
G1 F1380 X82.714 Y124.114 E706.75457
G0 F10500 X83.421 Y124.114
G1 F1380 X126.113 Y81.421 E708.55279
G0 F10500 X126.113 Y82.129
G1 F1380 X84.128 Y124.114 E710.32120
G0 F10500 X84.835 Y124.114
G1 F1380 X126.113 Y82.836 E712.05983
G0 F10500 X126.113 Y83.543
G1 F1380 X85.542 Y124.114 E713.76868
G0 F10500 X86.250 Y124.114
G1 F1380 X126.113 Y84.250 E715.44773
G0 F10500 X126.113 Y84.957
G1 F1380 X86.957 Y124.114 E717.09701
G0 F10500 X87.664 Y124.114
G1 F1380 X126.113 Y85.664 E718.71650
G0 F10500 X126.113 Y86.371
G1 F1380 X88.371 Y124.114 E720.30622
G0 F10500 X89.078 Y124.114
G1 F1380 X126.113 Y87.078 E721.86616
G0 F10500 X126.113 Y87.785
G1 F1380 X89.785 Y124.114 E723.39632
G0 F10500 X90.492 Y124.114
G1 F1380 X126.113 Y88.492 E724.89670
G0 F10500 X126.113 Y89.200
G1 F1380 X91.199 Y124.114 E726.36728
G0 F10500 X91.906 Y124.114
G1 F1380 X126.113 Y89.907 E727.80808
G0 F10500 X126.113 Y90.614
G1 F1380 X92.614 Y124.114 E729.21908
G0 F10500 X93.321 Y124.114
G1 F1380 X126.113 Y91.321 E730.60030
G0 F10500 X126.113 Y92.028
G1 F1380 X94.028 Y124.114 E731.95174
G0 F10500 X94.735 Y124.114
G1 F1380 X126.113 Y92.735 E733.27341
G0 F10500 X126.113 Y93.442
G1 F1380 X95.442 Y124.114 E734.56529
G0 F10500 X96.149 Y124.114
G1 F1380 X126.113 Y94.149 E735.82740
G0 F10500 X126.113 Y94.856
G1 F1380 X96.856 Y124.114 E737.05973
G0 F10500 X97.563 Y124.114
G1 F1380 X126.113 Y95.564 E738.26226
G0 F10500 X126.113 Y96.271
G1 F1380 X98.270 Y124.114 E739.43500
G0 F10500 X98.977 Y124.114
G1 F1380 X126.113 Y96.978 E740.57797
G0 F10500 X126.113 Y97.685
G1 F1380 X99.685 Y124.114 E741.69114
G0 F10500 X100.392 Y124.114
G1 F1380 X126.113 Y98.392 E742.77454
G0 F10500 X126.113 Y99.099
G1 F1380 X101.099 Y124.114 E743.82815
G0 F10500 X101.806 Y124.114
G1 F1380 X126.113 Y99.806 E744.85198
G0 F10500 X126.113 Y100.513
G1 F1380 X102.513 Y124.114 E745.84604
G0 F10500 X103.220 Y124.114
G1 F1380 X126.113 Y101.220 E746.81031
G0 F10500 X126.113 Y101.928
G1 F1380 X103.927 Y124.114 E747.74479
G0 F10500 X104.634 Y124.114
G1 F1380 X126.113 Y102.635 E748.64948
G0 F10500 X126.113 Y103.342
G1 F1380 X105.341 Y124.114 E749.52440
G0 F10500 X106.049 Y124.114
G1 F1380 X126.113 Y104.049 E750.36952
G0 F10500 X126.113 Y104.756
G1 F1380 X106.756 Y124.114 E751.18486
G0 F10500 X107.463 Y124.114
G1 F1380 X126.113 Y105.463 E751.97042
G0 F10500 X126.113 Y106.170
G1 F1380 X108.170 Y124.114 E752.72620
G0 F10500 X108.877 Y124.114
G1 F1380 X126.113 Y106.877 E753.45220
G0 F10500 X126.113 Y107.584
G1 F1380 X109.584 Y124.114 E754.14843
G0 F10500 X110.291 Y124.114
G1 F1380 X126.113 Y108.291 E754.81487
G0 F10500 X126.113 Y108.999
G1 F1380 X110.998 Y124.114 E755.45152
G0 F10500 X111.705 Y124.114
G1 F1380 X126.113 Y109.706 E756.05838
G0 F10500 X126.113 Y110.413
G1 F1380 X112.413 Y124.114 E756.63545
G0 F10500 X113.120 Y124.114
G1 F1380 X126.113 Y111.120 E757.18273
G0 F10500 X126.113 Y111.827
G1 F1380 X113.827 Y124.114 E757.70024
G0 F10500 X114.534 Y124.114
G1 F1380 X126.113 Y112.534 E758.18797
G0 F10500 X126.113 Y113.241
G1 F1380 X115.241 Y124.114 E758.64592
G0 F10500 X115.990 Y124.072
G1 F1380 X126.072 Y113.990 E759.07058
G0 F10500 X126.017 Y114.752
G1 F1380 X116.751 Y124.018 E759.46086
G0 F10500 X117.618 Y123.858
G1 F1380 X125.857 Y115.619 E759.80789
G0 F10500 X125.640 Y116.543
G1 F1380 X118.542 Y123.641 E760.10686
G0 F10500 X119.670 Y123.220
G1 F1380 X125.220 Y117.671 E760.34060
G0 F10500 X124.445 Y119.153
G1 F1380 X121.151 Y122.446 E760.47932
G0 F10500 X95.393 Y84.565
G1 F1380 X126.113 Y53.844 E761.77327
G0 F10500 X126.113 Y53.137
G1 F1380 X95.841 Y83.410 E763.04835
G0 F10500 X96.132 Y82.411
G1 F1380 X126.113 Y52.430 E764.31115
G0 F10500 X126.113 Y51.723
G1 F1380 X96.348 Y81.488 E765.56486
G0 F10500 X96.514 Y80.615
G1 F1380 X126.113 Y51.016 E766.81157
G0 F10500 X126.113 Y50.309
G1 F1380 X96.619 Y79.804 E768.05388
G0 F10500 X96.684 Y79.031
G1 F1380 X126.113 Y49.602 E769.29343
G0 F10500 X126.113 Y48.895
G1 F1380 X96.728 Y78.280 E770.53113
G0 F10500 X96.737 Y77.564
G1 F1380 X126.113 Y48.187 E771.76847
G0 F10500 X126.113 Y47.480
G1 F1380 X96.708 Y76.885 E773.00701
G0 F10500 X96.674 Y76.212
G1 F1380 X126.097 Y46.789 E774.24631
G0 F10500 X126.058 Y46.122
G1 F1380 X96.609 Y75.570 E775.48668
G0 F10500 X96.534 Y74.938
G1 F1380 X126.017 Y45.455 E776.72851
G0 F10500 X125.936 Y44.829
G1 F1380 X96.439 Y74.326 E777.97092
G0 F10500 X96.327 Y73.731
G1 F1380 X125.826 Y44.232 E779.21342
G0 F10500 X125.717 Y43.634
G1 F1380 X96.212 Y73.139 E780.45617
G0 F10500 X96.067 Y72.577
G1 F1380 X125.572 Y43.071 E781.69895
G0 F10500 X125.404 Y42.533
G1 F1380 X95.922 Y72.015 E782.94073
G0 F10500 X95.763 Y71.467
G1 F1380 X125.236 Y41.994 E784.18214
G0 F10500 X125.049 Y41.473
G1 F1380 X95.588 Y70.934 E785.42304
G0 F10500 X95.414 Y70.402
G1 F1380 X124.830 Y40.986 E786.66204
G0 F10500 X124.611 Y40.498
G1 F1380 X95.230 Y69.879 E787.89957
G0 F10500 X95.027 Y69.374
G1 F1380 X124.392 Y40.010 E789.13640
G0 F10500 X124.128 Y39.566
G1 F1380 X94.824 Y68.870 E790.37069
G0 F10500 X94.613 Y68.375
G1 F1380 X123.861 Y39.126 E791.60264
G0 F10500 X123.595 Y38.685
G1 F1380 X94.386 Y67.894 E792.83292
G0 F10500 X94.159 Y67.414
G1 F1380 X123.311 Y38.262 E794.06081
G0 F10500 X123.001 Y37.865
G1 F1380 X93.924 Y66.941 E795.28551
G0 F10500 X93.676 Y66.483
G1 F1380 X122.690 Y37.469 E796.50758
G0 F10500 X122.379 Y37.072
G1 F1380 X93.427 Y66.025 E797.72706
G0 F10500 X93.170 Y65.574
G1 F1380 X122.036 Y36.709 E798.94288
G0 F10500 X121.682 Y36.355
G1 F1380 X92.903 Y65.135 E800.15507
G0 F10500 X92.626 Y64.705
G1 F1380 X121.328 Y36.002 E801.36403
G0 F10500 X120.971 Y35.653
G1 F1380 X92.338 Y64.285 E802.57003
G0 F10500 X92.052 Y63.864
G1 F1380 X120.574 Y35.342 E803.77138
G0 F10500 X120.177 Y35.032
G1 F1380 X91.752 Y63.457 E804.96864
G0 F10500 X91.443 Y63.059
G1 F1380 X119.781 Y34.721 E806.16224
G0 F10500 X119.363 Y34.432
G1 F1380 X91.134 Y62.660 E807.35122
G0 F10500 X90.810 Y62.278
G1 F1380 X118.922 Y34.165 E808.53532
G0 F10500 X118.482 Y33.899
G1 F1380 X90.477 Y61.903 E809.71488
G0 F10500 X90.146 Y61.528
G1 F1380 X118.041 Y33.632 E810.88984
G0 F10500 X117.555 Y33.411
G1 F1380 X89.801 Y61.166 E812.05886
G0 F10500 X89.446 Y60.814
G1 F1380 X117.067 Y33.192 E813.22228
G0 F10500 X116.579 Y32.973
G1 F1380 X89.082 Y60.470 E814.38045
G0 F10500 X88.702 Y60.143
G1 F1380 X116.065 Y32.780 E815.53298
G0 F10500 X115.526 Y32.612
G1 F1380 X88.314 Y59.824 E816.67915
G0 F10500 X87.891 Y59.540
G1 F1380 X114.987 Y32.444 E817.82044
G0 F10500 X114.431 Y32.293
G1 F1380 X87.445 Y59.278 E818.95707
G0 F10500 X86.974 Y59.042
G1 F1380 X113.833 Y32.183 E820.08837
G0 F10500 X113.236 Y32.074
G1 F1380 X86.452 Y58.858 E821.21652
G0 F10500 X85.886 Y58.716
G1 F1380 X112.618 Y31.985 E822.34245
G0 F10500 X111.951 Y31.944
G1 F1380 X85.261 Y58.634 E823.46663
G0 F10500 X84.574 Y58.614
G1 F1380 X111.284 Y31.904 E824.59166
G0 F10500 X110.597 Y31.884
G1 F1380 X83.811 Y58.670 E825.71989
G0 F10500 X82.947 Y58.827
G1 F1380 X109.890 Y31.884 E826.85473
G0 F10500 X109.182 Y31.884
G1 F1380 X81.912 Y59.155 E828.00336
G0 F10500 X80.759 Y59.601
G1 F1380 X108.475 Y31.884 E829.17078
G0 F10500 X107.768 Y31.884
G1 F1380 X79.655 Y59.998 E830.35493
G0 F10500 X75.574 Y59.836
G1 F1380 X103.526 Y31.884 E831.53227
G0 F10500 X104.233 Y31.884
G1 F1380 X76.103 Y60.014 E832.71710
G0 F10500 X76.666 Y60.158
G1 F1380 X104.940 Y31.884 E833.90801
G0 F10500 X105.647 Y31.884
G1 F1380 X77.370 Y60.161 E835.09904
G0 F10500 X78.074 Y60.164
G1 F1380 X106.354 Y31.884 E836.29019
G0 F10500 X107.061 Y31.884
G1 F1380 X78.773 Y60.172 E837.48168
G0 F10500 X71.642 Y58.826
G0 X68.685 Y59.746
G0 X66.373 Y61.258
G1 F1380 X95.747 Y31.884 E838.71892
G0 F10500 X95.040 Y31.884
G1 F1380 X33.885 Y93.040 E841.29479
G0 F10500 X33.885 Y93.747
G1 F1380 X66.334 Y61.298 E842.66155
G0 F10500 X64.338 Y64.001
G1 F1380 X33.885 Y94.454 E843.94423
G0 F10500 X33.885 Y95.161
G1 F1380 X63.569 Y65.477 E845.19452
G0 F10500 X63.052 Y66.701
G1 F1380 X33.885 Y95.868 E846.42304
G0 F10500 X33.885 Y96.575
G1 F1380 X62.658 Y67.803 E847.63493
G0 F10500 X62.320 Y68.847
G1 F1380 X33.885 Y97.283 E848.83264
G0 F10500 X33.885 Y97.990
G1 F1380 X62.059 Y69.816 E850.01933
G0 F10500 X61.972 Y70.609
G1 F1380 X33.885 Y98.697 E851.20238
G0 F10500 X33.885 Y99.404
G1 F1380 X62.102 Y71.187 E852.39088
G0 F10500 X62.360 Y71.636
G1 F1380 X33.885 Y100.111 E853.59025
G0 F10500 X33.885 Y100.818
G1 F1380 X62.718 Y71.985 E854.80470
G0 F10500 X63.143 Y72.267
G1 F1380 X33.885 Y101.525 E856.03704
G0 F10500 X33.885 Y102.232
G1 F1380 X63.612 Y72.506 E857.28913
G0 F10500 X64.098 Y72.726
G1 F1380 X33.885 Y102.939 E858.56170
G0 F10500 X33.885 Y103.647
G1 F1380 X64.565 Y72.966 E859.85396
G0 F10500 X64.965 Y73.273
G1 F1380 X33.885 Y104.354 E861.16308
G0 F10500 X33.885 Y105.061
G1 F1380 X65.311 Y73.634 E862.48676
G0 F10500 X65.608 Y74.044
G1 F1380 X33.885 Y105.768 E863.82296
G0 F10500 X33.885 Y106.475
G1 F1380 X65.866 Y74.494 E865.17000
G0 F10500 X66.112 Y74.955
G1 F1380 X33.885 Y107.182 E866.52740
G0 F10500 X33.885 Y107.889
G1 F1380 X66.340 Y75.434 E867.89441
G0 F10500 X66.544 Y75.937
G1 F1380 X33.885 Y108.596 E869.27001
G0 F10500 X33.905 Y109.283
G1 F1380 X66.712 Y76.476 E870.65184
G0 F10500 X66.859 Y77.036
G1 F1380 X33.945 Y109.950 E872.03818
G0 F10500 X33.985 Y110.617
G1 F1380 X66.958 Y77.644 E873.42701
G0 F10500 X67.020 Y78.290
G1 F1380 X34.074 Y111.235 E874.81467
G0 F10500 X34.185 Y111.832
G1 F1380 X67.029 Y78.988 E876.19806
G0 F10500 X66.963 Y79.761
G1 F1380 X34.294 Y112.429 E877.57406
G0 F10500 X33.885 Y92.333
G1 F1380 X94.333 Y31.884 E880.12016
G0 F10500 X93.626 Y31.884
G1 F1380 X33.885 Y91.626 E882.63647
G0 F10500 X33.885 Y90.919
G1 F1380 X92.919 Y31.884 E885.12301
G0 F10500 X92.212 Y31.884
G1 F1380 X33.885 Y90.211 E887.57975
G0 F10500 X33.885 Y89.504
G1 F1380 X91.505 Y31.884 E890.00671
G0 F10500 X90.798 Y31.884
G1 F1380 X33.885 Y88.797 E892.40388
G0 F10500 X33.885 Y88.090
G1 F1380 X90.091 Y31.884 E894.77129
G0 F10500 X89.383 Y31.884
G1 F1380 X33.885 Y87.383 E897.10889
G0 F10500 X33.885 Y86.676
G1 F1380 X88.676 Y31.884 E899.41671
G0 F10500 X87.969 Y31.884
G1 F1380 X33.885 Y85.969 E901.69475
G0 F10500 X33.885 Y85.262
G1 F1380 X87.262 Y31.884 E903.94301
G0 F10500 X86.555 Y31.884
G1 F1380 X33.885 Y84.555 E906.16150
G0 F10500 X33.885 Y83.848
G1 F1380 X85.848 Y31.884 E908.35020
G0 F10500 X85.141 Y31.884
G1 F1380 X33.885 Y83.140 E910.50911
G0 F10500 X33.885 Y82.433
G1 F1380 X84.434 Y31.884 E912.63824
G0 F10500 X83.727 Y31.884
G1 F1380 X33.885 Y81.726 E914.73758
G0 F10500 X33.885 Y81.019
G1 F1380 X83.019 Y31.884 E916.80713
G0 F10500 X82.312 Y31.884
G1 F1380 X33.885 Y80.312 E918.84690
G0 F10500 X33.885 Y79.605
G1 F1380 X81.605 Y31.884 E920.85689
G0 F10500 X80.898 Y31.884
G1 F1380 X33.885 Y78.898 E922.83710
G0 F10500 X33.885 Y78.191
G1 F1380 X80.191 Y31.884 E924.78754
G0 F10500 X96.455 Y31.884
G1 F1380 X69.008 Y59.331 E925.94361
G0 F10500 X70.189 Y58.857
G1 F1380 X97.162 Y31.884 E927.07971
G0 F10500 X97.869 Y31.884
G1 F1380 X71.093 Y58.660 E928.20752
G0 F10500 X71.848 Y58.612
G1 F1380 X98.576 Y31.884 E929.33330
G0 F10500 X99.283 Y31.884
G1 F1380 X72.477 Y58.690 E930.46237
G0 F10500 X73.010 Y58.864
G1 F1380 X99.990 Y31.884 E931.59877
G0 F10500 X100.697 Y31.884
G1 F1380 X73.491 Y59.091 E932.74471
G0 F10500 X73.971 Y59.317
G1 F1380 X101.404 Y31.884 E933.90019
G0 F10500 X102.111 Y31.884
G1 F1380 X74.470 Y59.526 E935.06445
G0 F10500 X75.022 Y59.681
G1 F1380 X102.818 Y31.884 E936.23524
G0 F10500 X79.484 Y31.884
G1 F1380 X33.885 Y77.484 E938.15590
G0 F10500 X33.885 Y76.776
G1 F1380 X78.777 Y31.884 E940.04675
G0 F10500 X78.070 Y31.884
G1 F1380 X33.885 Y76.069 E941.90782
G0 F10500 X33.885 Y75.362
G1 F1380 X77.363 Y31.884 E943.73912
G0 F10500 X76.656 Y31.884
G1 F1380 X33.885 Y74.655 E945.54064
G0 F10500 X33.885 Y73.948
G1 F1380 X75.948 Y31.884 E947.31236
G0 F10500 X75.241 Y31.884
G1 F1380 X33.885 Y73.241 E949.05429
G0 F10500 X33.885 Y72.534
G1 F1380 X74.534 Y31.884 E950.76645
G0 F10500 X73.827 Y31.884
G1 F1380 X33.885 Y71.827 E952.44883
G0 F10500 X33.885 Y71.120
G1 F1380 X73.120 Y31.884 E954.10144
G0 F10500 X72.413 Y31.884
G1 F1380 X33.885 Y70.412 E955.72424
G0 F10500 X33.885 Y69.705
G1 F1380 X71.706 Y31.884 E957.31726
G0 F10500 X70.999 Y31.884
G1 F1380 X33.885 Y68.998 E958.88050
G0 F10500 X33.885 Y68.291
G1 F1380 X70.292 Y31.884 E960.41397
G0 F10500 X69.584 Y31.884
G1 F1380 X33.885 Y67.584 E961.91763
G0 F10500 X33.885 Y66.877
G1 F1380 X68.877 Y31.884 E963.39152
G0 F10500 X68.170 Y31.884
G1 F1380 X33.885 Y66.170 E964.83563
G0 F10500 X33.885 Y65.463
G1 F1380 X67.463 Y31.884 E966.24996
G0 F10500 X66.756 Y31.884
G1 F1380 X33.885 Y64.756 E967.63451
G0 F10500 X33.885 Y64.049
G1 F1380 X66.049 Y31.884 E968.98928
G0 F10500 X65.342 Y31.884
G1 F1380 X33.885 Y63.341 E970.31425
G0 F10500 X33.885 Y62.634
G1 F1380 X64.635 Y31.884 E971.60944
G0 F10500 X63.928 Y31.884
G1 F1380 X33.885 Y61.927 E972.87485
G0 F10500 X33.885 Y61.220
G1 F1380 X63.221 Y31.884 E974.11049
G0 F10500 X62.513 Y31.884
G1 F1380 X33.885 Y60.513 E975.31632
G0 F10500 X33.885 Y59.806
G1 F1380 X61.806 Y31.884 E976.49238
G0 F10500 X61.099 Y31.884
G1 F1380 X33.885 Y59.099 E977.63865
G0 F10500 X33.885 Y58.392
G1 F1380 X60.392 Y31.884 E978.75515
G0 F10500 X59.685 Y31.884
G1 F1380 X33.885 Y57.685 E979.84187
G0 F10500 X33.885 Y56.977
G1 F1380 X58.978 Y31.884 E980.89879
G0 F10500 X58.271 Y31.884
G1 F1380 X33.885 Y56.270 E981.92593
G0 F10500 X33.885 Y55.563
G1 F1380 X57.564 Y31.884 E982.92329
G0 F10500 X56.857 Y31.884
G1 F1380 X33.885 Y54.856 E983.89087
G0 F10500 X33.885 Y54.149
G1 F1380 X56.149 Y31.884 E984.82865
G0 F10500 X55.442 Y31.884
G1 F1380 X33.885 Y53.442 E985.73666
G0 F10500 X33.885 Y52.735
G1 F1380 X54.735 Y31.884 E986.61488
G0 F10500 X54.028 Y31.884
G1 F1380 X33.885 Y52.028 E987.46333
G0 F10500 X33.885 Y51.321
G1 F1380 X53.321 Y31.884 E988.28199
G0 F10500 X52.614 Y31.884
G1 F1380 X33.885 Y50.613 E989.07086
G0 F10500 X33.885 Y49.906
G1 F1380 X51.907 Y31.884 E989.82995
G0 F10500 X51.200 Y31.884
G1 F1380 X33.885 Y49.199 E990.55925
G0 F10500 X33.885 Y48.492
G1 F1380 X50.493 Y31.884 E991.25878
G0 F10500 X49.785 Y31.884
G1 F1380 X33.885 Y47.785 E991.92851
G0 F10500 X33.885 Y47.078
G1 F1380 X49.078 Y31.884 E992.56847
G0 F10500 X48.328 Y31.927
G1 F1380 X33.929 Y46.327 E993.17497
G0 F10500 X33.973 Y45.575
G1 F1380 X47.576 Y31.973 E993.74791
G0 F10500 X46.769 Y32.072
G1 F1380 X34.073 Y44.769 E994.28269
G0 F10500 X34.232 Y43.902
G1 F1380 X45.903 Y32.232 E994.77425
G0 F10500 X44.971 Y32.456
G1 F1380 X34.457 Y42.970 E995.21710
G0 F10500 X34.778 Y41.942
G1 F1380 X43.943 Y32.777 E995.60313
G0 F10500 X42.732 Y33.281
G1 F1380 X35.282 Y40.731 E995.91693
G0 F10500 X36.069 Y39.237
G1 F1380 X41.238 Y34.068 E996.13465
;LAYER:2
G0 F10500 X41.913 Y33.485 Z1.185
;TYPE:WALL-INNER
G1 F1440 X43.597 Y32.728 E996.18964
G1 X45.354 Y32.180 E996.24445
G1 X47.171 Y31.847 E996.29947
G1 X49.041 Y31.734 E996.35526
G1 X110.960 Y31.734 E998.19942
G1 X112.829 Y31.847 E998.25519
G1 X114.646 Y32.180 E998.31021
G1 X116.403 Y32.728 E998.36502
G1 X118.087 Y33.485 E998.42001
G1 X119.672 Y34.444 E998.47519
G1 X121.117 Y35.576 E998.52986
G1 X122.424 Y36.883 E998.58491
G1 X123.556 Y38.328 E998.63958
G1 X124.515 Y39.913 E998.69475
G1 X125.272 Y41.597 E998.74974
G1 X125.820 Y43.354 E998.80456
G1 X126.153 Y45.171 E998.85958
G1 X126.266 Y47.041 E998.91537
G1 X126.266 Y113.407 E1000.89198
G1 X126.154 Y114.972 E1000.93871
G1 X125.826 Y116.483 E1000.98476
G1 X125.283 Y117.936 E1001.03096
G1 X124.544 Y119.290 E1001.07690
G1 X123.620 Y120.525 E1001.12284
G1 X122.525 Y121.620 E1001.16896
G1 X121.290 Y122.544 E1001.21490
G1 X119.936 Y123.283 E1001.26084
G1 X118.483 Y123.826 E1001.30704
G1 X116.972 Y124.154 E1001.35309
G1 X115.407 Y124.266 E1001.39982
G1 X49.041 Y124.266 E1003.37642
G1 X47.171 Y124.153 E1003.43222
G1 X45.354 Y123.820 E1003.48724
G1 X43.597 Y123.272 E1003.54205
G1 X41.913 Y122.515 E1003.59704
G1 X40.328 Y121.556 E1003.65222
G1 X38.883 Y120.424 E1003.70689
G1 X37.576 Y119.117 E1003.76194
G1 X36.444 Y117.672 E1003.81661
G1 X35.485 Y116.087 E1003.87178
G1 X34.728 Y114.403 E1003.92677
G1 X34.180 Y112.646 E1003.98159
G1 X33.847 Y110.829 E1004.03661
G1 X33.734 Y108.960 E1004.09237
G1 X33.734 Y47.041 E1005.93653
G1 X33.847 Y45.171 E1005.99233
G1 X34.180 Y43.354 E1006.04734
G1 X34.728 Y41.597 E1006.10216
G1 X35.485 Y39.913 E1006.15715
G1 X36.444 Y38.328 E1006.21232
G1 X37.576 Y36.883 E1006.26699
G1 X38.883 Y35.576 E1006.32205
G1 X40.328 Y34.444 E1006.37672
G1 X41.913 Y33.485 E1006.43189
G0 F10500 X67.270 Y60.860
G1 F1440 X66.588 Y61.502 E1006.45979
G1 X66.283 Y61.828 E1006.47308
G1 X65.581 Y62.683 E1006.50603
G1 X64.918 Y63.648 E1006.54090
G1 X64.302 Y64.717 E1006.57765
G1 X63.758 Y65.833 E1006.61463
G1 X63.208 Y67.185 E1006.65810
G1 X62.707 Y68.686 E1006.70523
G1 X62.523 Y69.321 E1006.72492
G1 X62.308 Y70.213 E1006.75224
G1 X62.288 Y70.462 E1006.75968
G1 X62.303 Y70.745 E1006.76813
G1 X62.441 Y71.168 E1006.78138
G1 X62.597 Y71.415 E1006.79008
G1 X62.822 Y71.659 E1006.79996
G1 X63.111 Y71.881 E1006.81082
G1 X63.519 Y72.110 E1006.82475
G1 X64.208 Y72.419 E1006.84724
G1 X64.724 Y72.681 E1006.86448
G1 X65.123 Y72.968 E1006.87912
G1 X65.596 Y73.460 E1006.89944
G1 X65.976 Y74.004 E1006.91921
G1 X66.538 Y75.060 E1006.95483
G1 X66.883 Y75.910 E1006.98216
G1 X67.141 Y76.779 E1007.00915
G1 X67.224 Y77.168 E1007.02100
G1 X67.342 Y78.080 E1007.04839
G1 X67.354 Y79.004 E1007.07591
G1 X67.268 Y80.003 E1007.10578
G1 X67.173 Y80.606 E1007.12396
G1 X67.049 Y81.272 E1007.14413
G1 X66.844 Y82.090 E1007.16925
G1 X66.595 Y82.736 E1007.18987
G1 X66.346 Y83.170 E1007.20477
G1 X66.014 Y83.570 E1007.22025
G1 X65.637 Y83.888 E1007.23494
G1 X64.770 Y84.433 E1007.26544
G1 X64.242 Y84.781 E1007.28428
G1 X63.990 Y84.980 E1007.29384
G1 X63.712 Y85.269 E1007.30578
G1 X63.575 Y85.449 E1007.31252
G1 X63.448 Y85.679 E1007.32035
G1 X63.372 Y85.892 E1007.32708
G1 X63.339 Y86.025 E1007.33116
G1 X63.313 Y86.259 E1007.33818
G1 X63.329 Y86.550 E1007.34686
G1 X63.408 Y86.870 E1007.35667
G1 X63.564 Y87.238 E1007.36858
G1 X63.845 Y87.704 E1007.38478
G1 X64.253 Y88.233 E1007.40468
G1 X64.488 Y88.490 E1007.41505
G1 X65.019 Y88.987 E1007.43671
G1 X65.627 Y89.440 E1007.45930
G1 X66.338 Y89.859 E1007.48388
G1 X67.209 Y90.270 E1007.51256
G1 X68.112 Y90.607 E1007.54127
G1 X69.024 Y90.865 E1007.56949
G1 X69.973 Y91.042 E1007.59825
G1 X70.876 Y91.120 E1007.62524
G1 X71.770 Y91.112 E1007.65187
G1 X72.653 Y91.019 E1007.67831
G1 X73.523 Y90.841 E1007.70476
G1 X74.672 Y90.486 E1007.74058
G1 X76.070 Y89.967 E1007.78499
G1 X77.059 Y89.629 E1007.81612
G1 X77.770 Y89.445 E1007.83799
G1 X78.485 Y89.337 E1007.85953
G1 X79.010 Y89.341 E1007.87517
G1 X79.514 Y89.437 E1007.89045
G1 X80.827 Y89.919 E1007.93211
G1 X81.898 Y90.297 E1007.96593
G1 X82.933 Y90.590 E1007.99797
G1 X83.701 Y90.750 E1008.02133
G1 X84.665 Y90.871 E1008.05027
G1 X85.630 Y90.903 E1008.07903
G1 X86.601 Y90.846 E1008.10800
G1 X87.576 Y90.701 E1008.13736
G1 X88.721 Y90.413 E1008.17252
G1 X89.602 Y90.098 E1008.20039
G1 X90.434 Y89.713 E1008.22769
G1 X91.146 Y89.306 E1008.25212
G1 X91.880 Y88.790 E1008.27884
G1 X92.557 Y88.205 E1008.30549
G1 X93.187 Y87.548 E1008.33260
G1 X93.684 Y86.931 E1008.35619
G1 X94.262 Y86.075 E1008.38696
G1 X94.780 Y85.140 E1008.41879
G1 X95.235 Y84.130 E1008.45178
G1 X95.569 Y83.207 E1008.48102
G1 X95.913 Y82.001 E1008.51837
G1 X96.169 Y80.751 E1008.55637
G1 X96.335 Y79.470 E1008.59484
G1 X96.410 Y78.172 E1008.63357
G1 X96.413 Y77.469 E1008.65450
G1 X96.345 Y76.085 E1008.69577
G1 X96.177 Y74.683 E1008.73783
G1 X95.911 Y73.266 E1008.78077
G1 X95.544 Y71.836 E1008.82474
G1 X95.356 Y71.250 E1008.84307
G1 X94.984 Y70.137 E1008.87802
G1 X94.398 Y68.681 E1008.92477
G1 X93.734 Y67.271 E1008.97118
G1 X93.000 Y65.920 E1009.01698
G1 X92.499 Y65.096 E1009.04570
G1 X91.677 Y63.889 E1009.08919
G1 X90.788 Y62.743 E1009.13239
G1 X89.836 Y61.668 E1009.17516
G1 X89.367 Y61.185 E1009.19521
G1 X88.738 Y60.590 E1009.22099
G1 X88.123 Y60.084 E1009.24471
G1 X87.510 Y59.673 E1009.26670
G1 X86.792 Y59.312 E1009.29063
G1 X86.209 Y59.116 E1009.30895
G1 X85.661 Y59.000 E1009.32563
G1 X84.982 Y58.932 E1009.34596
G1 X84.273 Y58.943 E1009.36708
G1 X83.835 Y58.987 E1009.38019
G1 X83.060 Y59.132 E1009.40367
G1 X82.223 Y59.384 E1009.42970
G1 X81.646 Y59.601 E1009.44806
G1 X80.943 Y59.880 E1009.47059
G1 X80.094 Y60.206 E1009.49768
G1 X79.372 Y60.421 E1009.52011
G1 X78.900 Y60.497 E1009.53435
G1 X78.388 Y60.498 E1009.54960
G1 X77.682 Y60.478 E1009.57064
G1 X76.808 Y60.498 E1009.59667
G1 X76.535 Y60.464 E1009.60487
G1 X76.207 Y60.393 E1009.61486
G1 X75.392 Y60.117 E1009.64049
G1 X74.849 Y59.963 E1009.65730
G1 X74.361 Y59.833 E1009.67234
G1 X74.193 Y59.778 E1009.67761
G1 X73.663 Y59.533 E1009.69500
G1 X73.189 Y59.298 E1009.71075
G1 X72.713 Y59.100 E1009.72611
G1 X72.376 Y58.998 E1009.73659
G1 X72.117 Y58.954 E1009.74442
G1 X71.655 Y58.926 E1009.75820
G1 X71.123 Y58.967 E1009.77410
G1 X70.185 Y59.193 E1009.80283
G1 X69.430 Y59.483 E1009.82692
G1 X68.733 Y59.833 E1009.85015
G1 X67.987 Y60.303 E1009.87641
G1 X67.270 Y60.860 E1009.90345
G0 F10500 X64.961 Y63.675
G0 X62.755 Y68.701
G0 X62.355 Y70.735
G0 X63.140 Y71.838
G0 X63.457 Y86.853
G0 X65.051 Y88.947
G0 X68.128 Y90.560
G0 X71.767 Y91.061
G0 X76.069 Y89.914
G0 X77.245 Y90.271
G1 F1440 X76.404 Y90.646 E1009.93088
G1 X75.516 Y91.117 E1009.96081
G1 X74.687 Y91.644 E1009.99007
G1 X73.922 Y92.227 E1010.01872
G1 X73.224 Y92.865 E1010.04688
G1 X72.480 Y93.695 E1010.08008
G1 X71.985 Y94.367 E1010.10494
G1 X71.577 Y95.047 E1010.12856
G1 X71.388 Y95.422 E1010.14106
G1 X71.100 Y96.139 E1010.16408
G1 X70.850 Y96.999 E1010.19075
G1 X70.667 Y97.868 E1010.21720
G1 X70.544 Y98.634 E1010.24031
G1 X70.518 Y98.936 E1010.24933
G1 X70.519 Y99.039 E1010.25240
G1 X70.518 Y99.340 E1010.26137
G1 X70.593 Y99.743 E1010.27358
G1 X70.740 Y100.058 E1010.28393
G1 X71.027 Y100.356 E1010.29625
G1 X71.361 Y100.508 E1010.30718
G1 X71.597 Y100.554 E1010.31434
G1 X71.808 Y100.563 E1010.32063
G1 X72.120 Y100.530 E1010.32998
G1 X72.527 Y100.419 E1010.34254
G1 X73.112 Y100.182 E1010.36134
G1 X74.235 Y99.610 E1010.39887
G1 X75.269 Y99.064 E1010.43370
G1 X75.911 Y98.684 E1010.45592
G1 X76.532 Y98.231 E1010.47881
G1 X77.079 Y97.721 E1010.50109
G1 X77.623 Y97.088 E1010.52595
G1 X78.059 Y96.476 E1010.54833
G1 X78.479 Y95.836 E1010.57112
G1 X78.979 Y94.944 E1010.60158
G1 X79.398 Y94.049 E1010.63101
G1 X79.711 Y93.166 E1010.65892
G1 X79.866 Y92.615 E1010.67596
G1 X80.026 Y91.926 E1010.69703
G1 X80.112 Y91.352 E1010.71432
G1 X80.110 Y91.260 E1010.71706
G1 X80.113 Y91.050 E1010.72331
G1 X80.078 Y90.798 E1010.73089
G1 X79.959 Y90.476 E1010.74111
G1 X79.794 Y90.249 E1010.74947
G1 X79.601 Y90.085 E1010.75702
G1 X79.351 Y89.963 E1010.76530
G1 X79.117 Y89.910 E1010.77245
G1 X78.926 Y89.892 E1010.77816
G1 X78.428 Y89.930 E1010.79304
G1 X77.863 Y90.055 E1010.81027
G1 X77.245 Y90.271 E1010.82977
G0 F10500 X77.430 Y90.736
;TYPE:WALL-OUTER
G1 F1320 X76.623 Y91.096 E1010.85609
G1 X75.767 Y91.550 E1010.88494
G1 X74.973 Y92.055 E1010.91297
G1 X74.243 Y92.611 E1010.94030
G1 X73.573 Y93.224 E1010.96735
G1 X72.870 Y94.008 E1010.99871
G1 X72.402 Y94.644 E1011.02223
G1 X72.015 Y95.288 E1011.04460
G1 X71.844 Y95.628 E1011.05594
G1 X71.573 Y96.302 E1011.07758
G1 X71.335 Y97.120 E1011.10295
G1 X71.159 Y97.959 E1011.12848
G1 X71.041 Y98.696 E1011.15071
G1 X71.018 Y98.955 E1011.15845
G1 X71.019 Y99.041 E1011.16102
G1 X71.018 Y99.295 E1011.16858
G1 X71.073 Y99.589 E1011.17749
G1 X71.158 Y99.771 E1011.18347
G1 X71.321 Y99.941 E1011.19049
G1 X71.514 Y100.029 E1011.19680
G1 X71.655 Y100.056 E1011.20108
G1 X71.791 Y100.062 E1011.20513
G1 X72.027 Y100.037 E1011.21220
G1 X72.367 Y99.944 E1011.22270
G1 X72.904 Y99.727 E1011.23995
G1 X74.005 Y99.166 E1011.27675
G1 X75.025 Y98.627 E1011.31111
G1 X75.636 Y98.266 E1011.33225
G1 X76.213 Y97.845 E1011.35352
G1 X76.718 Y97.374 E1011.37409
G1 X77.229 Y96.779 E1011.39745
G1 X77.646 Y96.194 E1011.41885
G1 X78.051 Y95.577 E1011.44083
G1 X78.534 Y94.715 E1011.47026
G1 X78.935 Y93.859 E1011.49841
G1 X79.234 Y93.015 E1011.52508
G1 X79.381 Y92.491 E1011.54129
G1 X79.535 Y91.832 E1011.56144
G1 X79.611 Y91.319 E1011.57689
G1 X79.610 Y91.253 E1011.57886
G1 X79.612 Y91.081 E1011.58398
G1 X79.590 Y90.921 E1011.58879
G1 X79.514 Y90.714 E1011.59536
G1 X79.425 Y90.592 E1011.59985
G1 X79.325 Y90.507 E1011.60376
G1 X79.183 Y90.438 E1011.60846
G1 X78.923 Y90.394 E1011.61632
G1 X78.501 Y90.426 E1011.62892
G1 X78.000 Y90.537 E1011.64421
G1 X77.430 Y90.736 E1011.66219
G0 F10500 X77.288 Y90.417
G0 X77.017 Y89.485
G0 X76.918 Y89.149
G1 F1320 X77.676 Y88.953 E1011.68551
G1 X78.446 Y88.837 E1011.70870
G1 X79.058 Y88.841 E1011.72693
G1 X79.633 Y88.950 E1011.74436
G1 X80.999 Y89.450 E1011.78768
G1 X82.049 Y89.820 E1011.82084
G1 X83.052 Y90.104 E1011.85188
G1 X83.784 Y90.257 E1011.87416
G1 X84.704 Y90.372 E1011.90177
G1 X85.623 Y90.402 E1011.92916
G1 X86.550 Y90.348 E1011.95681
G1 X87.478 Y90.210 E1011.98476
G1 X88.576 Y89.934 E1012.01848
G1 X89.413 Y89.635 E1012.04495
G1 X90.205 Y89.268 E1012.07094
G1 X90.877 Y88.883 E1012.09401
G1 X91.572 Y88.395 E1012.11930
G1 X92.212 Y87.842 E1012.14450
G1 X92.811 Y87.217 E1012.17028
G1 X93.281 Y86.634 E1012.19258
G1 X93.835 Y85.814 E1012.22206
G1 X94.333 Y84.916 E1012.25264
G1 X94.771 Y83.942 E1012.28445
G1 X95.093 Y83.053 E1012.31261
G1 X95.427 Y81.882 E1012.34887
G1 X95.676 Y80.668 E1012.38578
G1 X95.837 Y79.423 E1012.42317
G1 X95.910 Y78.157 E1012.46094
G1 X95.913 Y77.480 E1012.48110
G1 X95.846 Y76.127 E1012.52145
G1 X95.682 Y74.759 E1012.56249
G1 X95.422 Y73.375 E1012.60443
G1 X95.063 Y71.975 E1012.64747
G1 X94.881 Y71.405 E1012.66529
G1 X94.515 Y70.310 E1012.69968
G1 X93.939 Y68.881 E1012.74557
G1 X93.288 Y67.497 E1012.79112
G1 X92.567 Y66.169 E1012.83613
G1 X92.078 Y65.367 E1012.86410
G1 X91.272 Y64.183 E1012.90676
G1 X90.403 Y63.062 E1012.94901
G1 X89.469 Y62.008 E1012.99095
G1 X89.016 Y61.541 E1013.01033
G1 X88.407 Y60.965 E1013.03529
G1 X87.824 Y60.486 E1013.05777
G1 X87.257 Y60.106 E1013.07809
G1 X86.599 Y59.775 E1013.10003
G1 X86.077 Y59.599 E1013.11644
G1 X85.584 Y59.495 E1013.13144
G1 X84.961 Y59.433 E1013.15009
G1 X84.302 Y59.442 E1013.16972
G1 X83.906 Y59.482 E1013.18157
G1 X83.179 Y59.619 E1013.20361
G1 X82.383 Y59.858 E1013.22836
G1 X81.826 Y60.068 E1013.24609
G1 X81.123 Y60.346 E1013.26861
G1 X80.263 Y60.677 E1013.29605
G1 X79.481 Y60.911 E1013.32036
G1 X78.942 Y60.997 E1013.33662
G1 X78.374 Y60.998 E1013.35354
G1 X77.681 Y60.978 E1013.37418
G1 X76.785 Y60.999 E1013.40088
G1 X76.449 Y60.957 E1013.41096
G1 X76.078 Y60.877 E1013.42227
G1 X75.243 Y60.594 E1013.44852
G1 X74.716 Y60.445 E1013.46484
G1 X74.224 Y60.314 E1013.48000
G1 X74.006 Y60.243 E1013.48683
G1 X73.453 Y59.987 E1013.50498
G1 X72.982 Y59.753 E1013.52064
G1 X72.544 Y59.571 E1013.53477
G1 X72.261 Y59.485 E1013.54358
G1 X71.659 Y59.427 E1013.56159
G1 X71.201 Y59.462 E1013.57527
G1 X70.334 Y59.672 E1013.60184
G1 X69.632 Y59.941 E1013.62423
G1 X68.979 Y60.269 E1013.64599
G1 X68.274 Y60.713 E1013.67081
G1 X67.595 Y61.241 E1013.69643
G1 X66.942 Y61.855 E1013.72312
G1 X66.659 Y62.158 E1013.73547
G1 X65.981 Y62.984 E1013.76730
G1 X65.341 Y63.915 E1013.80095
G1 X64.744 Y64.952 E1013.83658
G1 X64.215 Y66.037 E1013.87253
G1 X63.677 Y67.358 E1013.91502
G1 X63.184 Y68.835 E1013.96139
G1 X63.004 Y69.456 E1013.98065
G1 X62.804 Y70.284 E1014.00602
G1 X62.789 Y70.469 E1014.01155
G1 X62.799 Y70.653 E1014.01703
G1 X62.897 Y70.954 E1014.02646
G1 X62.995 Y71.109 E1014.03192
G1 X63.161 Y71.288 E1014.03920
G1 X63.388 Y71.463 E1014.04773
G1 X63.744 Y71.663 E1014.05989
G1 X64.423 Y71.968 E1014.08206
G1 X64.985 Y72.253 E1014.10083
G1 X65.444 Y72.583 E1014.11767
G1 X65.688 Y72.819 E1014.12778
G1 X65.988 Y73.148 E1014.14104
G1 X66.399 Y73.736 E1014.16241
G1 X66.663 Y74.207 E1014.17849
G1 X66.991 Y74.846 E1014.19988
G1 X67.355 Y75.743 E1014.22871
G1 X67.627 Y76.661 E1014.25723
G1 X67.717 Y77.080 E1014.26999
G1 X67.841 Y78.044 E1014.29894
G1 X67.854 Y79.020 E1014.32801
G1 X67.765 Y80.058 E1014.35904
G1 X67.668 Y80.676 E1014.37767
G1 X67.536 Y81.387 E1014.39921
G1 X67.321 Y82.242 E1014.42546
G1 X67.047 Y82.953 E1014.44816
G1 X66.760 Y83.454 E1014.46536
G1 X66.369 Y83.925 E1014.48359
G1 X65.936 Y84.291 E1014.50047
G1 X65.041 Y84.854 E1014.53196
G1 X64.535 Y85.186 E1014.54999
G1 X64.327 Y85.351 E1014.55790
G1 X63.995 Y85.722 E1014.57272
G1 X63.905 Y85.885 E1014.57827
G1 X63.832 Y86.113 E1014.58540
G1 X63.814 Y86.273 E1014.59020
G1 X63.826 Y86.475 E1014.59622
G1 X63.884 Y86.711 E1014.60346
G1 X64.011 Y87.011 E1014.61316
G1 X64.258 Y87.421 E1014.62742
G1 X64.636 Y87.911 E1014.64585
G1 X64.844 Y88.139 E1014.65504
G1 X65.340 Y88.602 E1014.67525
G1 X65.904 Y89.023 E1014.69621
G1 X66.572 Y89.416 E1014.71930
G1 X67.404 Y89.809 E1014.74670
G1 X68.268 Y90.132 E1014.77417
G1 X69.138 Y90.378 E1014.80110
G1 X70.040 Y90.546 E1014.82843
G1 X70.895 Y90.620 E1014.85399
G1 X71.741 Y90.612 E1014.87919
G1 X72.577 Y90.524 E1014.90422
G1 X73.399 Y90.356 E1014.92921
G1 X74.511 Y90.013 E1014.96387
G1 X75.909 Y89.493 E1015.00829
G1 X76.918 Y89.149 E1015.04004
G0 F10500 X77.017 Y89.485
G0 X72.520 Y93.727
G0 X71.148 Y96.156
G0 X49.036 Y124.416
G0 X49.028 Y124.766
G1 F1320 X47.108 Y124.650 E1015.09733
G1 X45.238 Y124.307 E1015.15396
G1 X43.418 Y123.740 E1015.21073
G1 X41.678 Y122.957 E1015.26756
G1 X40.050 Y121.973 E1015.32422
G1 X38.552 Y120.799 E1015.38090
G1 X37.201 Y119.448 E1015.43780
G1 X36.027 Y117.950 E1015.49449
G1 X35.043 Y116.322 E1015.55114
G1 X34.260 Y114.582 E1015.60797
G1 X33.693 Y112.762 E1015.66475
G1 X33.350 Y110.892 E1015.72137
G1 X33.234 Y108.973 E1015.77863
G1 X33.234 Y47.028 E1017.62356
G1 X33.350 Y45.108 E1017.68085
G1 X33.693 Y43.238 E1017.73748
G1 X34.260 Y41.418 E1017.79425
G1 X35.043 Y39.678 E1017.85108
G1 X36.027 Y38.050 E1017.90773
G1 X37.201 Y36.552 E1017.96442
G1 X38.552 Y35.201 E1018.02132
G1 X40.050 Y34.027 E1018.07801
G1 X41.678 Y33.043 E1018.13466
G1 X43.418 Y32.260 E1018.19149
G1 X45.238 Y31.693 E1018.24827
G1 X47.108 Y31.350 E1018.30489
G1 X49.028 Y31.234 E1018.36218
G1 X110.973 Y31.234 E1020.20711
G1 X112.892 Y31.350 E1020.26437
G1 X114.762 Y31.693 E1020.32099
G1 X116.582 Y32.260 E1020.37777
G1 X118.322 Y33.043 E1020.43460
G1 X119.950 Y34.027 E1020.49125
G1 X121.448 Y35.201 E1020.54794
G1 X122.799 Y36.552 E1020.60484
G1 X123.973 Y38.050 E1020.66153
G1 X124.957 Y39.678 E1020.71818
G1 X125.740 Y41.418 E1020.77501
G1 X126.307 Y43.238 E1020.83179
G1 X126.650 Y45.108 E1020.88841
G1 X126.766 Y47.028 E1020.94570
G1 X126.766 Y113.433 E1022.92347
G1 X126.650 Y115.044 E1022.97157
G1 X126.307 Y116.626 E1023.01978
G1 X125.742 Y118.140 E1023.06791
G1 X124.967 Y119.558 E1023.11604
G1 X123.999 Y120.852 E1023.16417
G1 X122.852 Y121.999 E1023.21248
G1 X121.560 Y122.966 E1023.26055
G1 X120.140 Y123.742 E1023.30874
G1 X118.626 Y124.307 E1023.35687
G1 X117.044 Y124.650 E1023.40509
G1 X115.429 Y124.766 E1023.45331
G1 X49.028 Y124.766 E1025.43096
G0 F10500 X48.766 Y124.073
;TYPE:SKIN
G1 F1920 X33.926 Y109.233 E1026.05602
G0 F10500 X33.909 Y108.509
G1 F1920 X49.490 Y124.090 E1026.71229
G0 F10500 X50.197 Y124.090
G1 F1920 X33.909 Y107.801 E1027.39836
G0 F10500 X33.909 Y107.094
G1 F1920 X50.904 Y124.090 E1028.11421
G0 F10500 X51.611 Y124.090
G1 F1920 X33.909 Y106.387 E1028.85984
G0 F10500 X33.909 Y105.680
G1 F1920 X52.318 Y124.090 E1029.63525
G0 F10500 X53.025 Y124.090
G1 F1920 X33.909 Y104.973 E1030.44044
G0 F10500 X33.909 Y104.266
G1 F1920 X53.733 Y124.090 E1031.27543
G0 F10500 X54.440 Y124.090
G1 F1920 X33.909 Y103.559 E1032.14020
G0 F10500 X33.909 Y102.852
G1 F1920 X55.147 Y124.090 E1033.03474
G0 F10500 X55.854 Y124.090
G1 F1920 X33.909 Y102.145 E1033.95907
G0 F10500 X33.909 Y101.438
G1 F1920 X56.561 Y124.090 E1034.91317
G0 F10500 X57.268 Y124.090
G1 F1920 X33.909 Y100.730 E1035.89707
G0 F10500 X33.909 Y100.023
G1 F1920 X57.975 Y124.090 E1036.91076
G0 F10500 X58.682 Y124.090
G1 F1920 X33.909 Y99.316 E1037.95422
G0 F10500 X33.909 Y98.609
G1 F1920 X59.389 Y124.090 E1039.02746
G0 F10500 X48.013 Y124.027
G1 F1920 X33.971 Y109.985 E1039.61891
G0 F10500 X34.016 Y110.737
G1 F1920 X47.261 Y123.982 E1040.17679
G0 F10500 X46.406 Y123.834
G1 F1920 X34.164 Y111.592 E1040.69242
G0 F10500 X34.322 Y112.458
G1 F1920 X45.540 Y123.675 E1041.16490
G0 F10500 X44.539 Y123.381
G1 F1920 X34.617 Y113.459 E1041.58282
G0 F10500 X34.974 Y114.524
G1 F1920 X43.474 Y123.023 E1041.94082
G0 F10500 X42.191 Y122.448
G1 F1920 X35.550 Y115.807 E1042.22054
G0 F10500 X36.553 Y117.517
G1 F1920 X40.480 Y121.444 E1042.38594
G0 F10500 X60.097 Y124.090
G1 F1920 X33.909 Y97.902 E1043.48898
G0 F10500 X33.909 Y97.195
G1 F1920 X60.804 Y124.090 E1044.62180
G0 F10500 X61.511 Y124.090
G1 F1920 X33.909 Y96.488 E1045.78440
G0 F10500 X33.909 Y95.781
G1 F1920 X62.218 Y124.090 E1046.97678
G0 F10500 X62.925 Y124.090
G1 F1920 X33.909 Y95.074 E1048.19893
G0 F10500 X33.909 Y94.366
G1 F1920 X63.632 Y124.090 E1049.45089
G0 F10500 X64.339 Y124.090
G1 F1920 X33.909 Y93.659 E1050.73262
G0 F10500 X33.909 Y92.952
G1 F1920 X65.046 Y124.090 E1052.04414
G0 F10500 X65.753 Y124.090
G1 F1920 X33.909 Y92.245 E1053.38543
G0 F10500 X33.909 Y91.538
G1 F1920 X66.460 Y124.090 E1054.75650
G0 F10500 X67.168 Y124.090
G1 F1920 X33.909 Y90.831 E1056.15737
G0 F10500 X33.909 Y90.124
G1 F1920 X67.875 Y124.090 E1057.58802
G0 F10500 X68.582 Y124.090
G1 F1920 X33.909 Y89.417 E1059.04845
G0 F10500 X33.909 Y88.710
G1 F1920 X69.289 Y124.090 E1060.53866
G0 F10500 X69.996 Y124.090
G1 F1920 X33.909 Y88.002 E1062.05867
G0 F10500 X33.909 Y87.295
G1 F1920 X70.703 Y124.090 E1063.60845
G0 F10500 X71.410 Y124.090
G1 F1920 X33.909 Y86.588 E1065.18802
G0 F10500 X33.909 Y85.881
G1 F1920 X72.117 Y124.090 E1066.79736
G0 F10500 X72.824 Y124.090
G1 F1920 X33.909 Y85.174 E1068.43649
G0 F10500 X33.909 Y84.467
G1 F1920 X73.532 Y124.090 E1070.10541
G0 F10500 X74.239 Y124.090
G1 F1920 X33.909 Y83.760 E1071.80411
G0 F10500 X33.909 Y83.053
G1 F1920 X74.946 Y124.090 E1073.53259
G0 F10500 X75.653 Y124.090
G1 F1920 X33.909 Y82.346 E1075.29085
G0 F10500 X33.909 Y81.639
G1 F1920 X76.360 Y124.090 E1077.07889
G0 F10500 X77.067 Y124.090
G1 F1920 X33.909 Y80.931 E1078.89673
G0 F10500 X33.909 Y80.224
G1 F1920 X77.774 Y124.090 E1080.74435
G0 F10500 X78.481 Y124.090
G1 F1920 X33.909 Y79.517 E1082.62174
G0 F10500 X33.909 Y78.810
G1 F1920 X79.188 Y124.090 E1084.52892
G0 F10500 X79.895 Y124.090
G1 F1920 X33.909 Y78.103 E1086.46587
G0 F10500 X33.909 Y77.396
G1 F1920 X80.603 Y124.090 E1088.43263
G0 F10500 X81.310 Y124.090
G1 F1920 X33.909 Y76.689 E1090.42916
G0 F10500 X33.909 Y75.982
G1 F1920 X82.017 Y124.090 E1092.45547
G0 F10500 X82.724 Y124.090
G1 F1920 X33.909 Y75.275 E1094.51156
G0 F10500 X33.909 Y74.567
G1 F1920 X83.431 Y124.090 E1096.59745
G0 F10500 X84.138 Y124.090
G1 F1920 X33.909 Y73.860 E1098.71312
G0 F10500 X33.909 Y73.153
G1 F1920 X84.845 Y124.090 E1100.85857
G0 F10500 X85.552 Y124.090
G1 F1920 X33.909 Y72.446 E1103.03380
G0 F10500 X33.909 Y71.739
G1 F1920 X86.259 Y124.090 E1105.23881
G0 F10500 X86.967 Y124.090
G1 F1920 X33.909 Y71.032 E1107.47361
G0 F10500 X33.909 Y70.325
G1 F1920 X87.674 Y124.090 E1109.73820
G0 F10500 X88.381 Y124.090
G1 F1920 X33.909 Y69.618 E1112.03256
G0 F10500 X33.909 Y68.911
G1 F1920 X89.088 Y124.090 E1114.35670
G0 F10500 X89.795 Y124.090
G1 F1920 X33.909 Y68.203 E1116.71065
G0 F10500 X33.909 Y67.496
G1 F1920 X90.502 Y124.090 E1119.09437
G0 F10500 X91.209 Y124.090
G1 F1920 X33.909 Y66.789 E1121.50787
G0 F10500 X33.909 Y66.082
G1 F1920 X91.916 Y124.090 E1123.95115
G0 F10500 X92.623 Y124.090
G1 F1920 X33.909 Y65.375 E1126.42421
G0 F10500 X33.909 Y64.668
G1 F1920 X93.331 Y124.090 E1128.92707
G0 F10500 X94.038 Y124.090
G1 F1920 X33.909 Y63.961 E1131.45970
G0 F10500 X33.909 Y63.254
G1 F1920 X70.419 Y99.764 E1132.99751
G0 F10500 X70.342 Y98.980
G1 F1920 X33.909 Y62.547 E1134.53207
G0 F10500 X33.909 Y61.840
G1 F1920 X70.413 Y98.344 E1136.06962
G0 F10500 X70.515 Y97.739
G1 F1920 X33.909 Y61.132 E1137.61148
G0 F10500 X33.909 Y60.425
G1 F1920 X70.637 Y97.154 E1139.15849
G0 F10500 X70.784 Y96.594
G1 F1920 X33.909 Y59.718 E1140.71169
G0 F10500 X33.909 Y59.011
G1 F1920 X70.947 Y96.049 E1142.27173
G0 F10500 X71.149 Y95.544
G1 F1920 X33.909 Y58.304 E1143.84028
G0 F10500 X33.909 Y57.597
G1 F1920 X63.245 Y86.933 E1145.07592
G0 F10500 X63.150 Y86.131
G1 F1920 X33.909 Y56.890 E1146.30755
G0 F10500 X33.909 Y56.183
G1 F1920 X63.304 Y85.578 E1147.54567
G0 F10500 X63.583 Y85.149
G1 F1920 X33.909 Y55.476 E1148.79552
G0 F10500 X33.909 Y54.768
G1 F1920 X63.938 Y84.797 E1150.06034
G0 F10500 X64.348 Y84.500
G1 F1920 X33.909 Y54.061 E1151.34244
G0 F10500 X33.909 Y53.354
G1 F1920 X64.776 Y84.222 E1152.64258
G0 F10500 X65.210 Y83.948
G1 F1920 X33.909 Y52.647 E1153.96098
G0 F10500 X33.909 Y51.940
G1 F1920 X65.631 Y83.662 E1155.29711
G0 F10500 X65.994 Y83.319
G1 F1920 X33.909 Y51.233 E1156.64855
G0 F10500 X33.909 Y50.526
G1 F1920 X66.293 Y82.910 E1158.01257
G0 F10500 X66.523 Y82.433
G1 F1920 X33.909 Y49.819 E1159.38627
G0 F10500 X33.909 Y49.112
G1 F1920 X66.708 Y81.911 E1160.76777
G0 F10500 X66.849 Y81.345
G1 F1920 X33.909 Y48.404 E1162.15522
G0 F10500 X33.909 Y47.697
G1 F1920 X66.967 Y80.755 E1163.54763
G0 F10500 X67.067 Y80.149
G1 F1920 X33.912 Y46.993 E1164.94414
G0 F10500 X33.952 Y46.326
G1 F1920 X67.134 Y79.509 E1166.34179
G0 F10500 X67.177 Y78.844
G1 F1920 X33.992 Y45.659 E1167.73954
G0 F10500 X34.052 Y45.013
G1 F1920 X67.168 Y78.128 E1169.13437
G0 F10500 X67.067 Y77.320
G1 F1920 X34.162 Y44.415 E1170.52033
G0 F10500 X34.272 Y43.817
G1 F1920 X66.844 Y76.390 E1171.89229
G0 F10500 X66.436 Y75.275
G1 F1920 X63.411 Y72.250 E1172.01970
G0 F10500 X64.869 Y73.000
G1 F1920 X65.508 Y73.640 E1172.04664
G0 F10500 X62.221 Y71.060
G1 F1920 X34.398 Y43.237 E1173.21854
G0 F10500 X34.566 Y42.698
G1 F1920 X62.128 Y70.260 E1174.37946
G0 F10500 X62.256 Y69.681
G1 F1920 X34.735 Y42.159 E1175.53866
G0 F10500 X34.907 Y41.624
G1 F1920 X62.400 Y69.117 E1176.69667
G0 F10500 X62.560 Y68.570
G1 F1920 X35.126 Y41.136 E1177.85219
G0 F10500 X35.345 Y40.648
G1 F1920 X62.737 Y68.040 E1179.00594
G0 F10500 X62.914 Y67.511
G1 F1920 X35.564 Y40.160 E1180.15795
G0 F10500 X35.814 Y39.703
G1 F1920 X63.098 Y66.987 E1181.30715
G0 F10500 X63.303 Y66.485
G1 F1920 X36.080 Y39.262 E1182.45379
G0 F10500 X36.347 Y38.822
G1 F1920 X63.508 Y65.982 E1183.59779
G0 F10500 X63.727 Y65.495
G1 F1920 X36.618 Y38.385 E1184.73964
G0 F10500 X36.929 Y37.990
G1 F1920 X63.959 Y65.020 E1185.87815
G0 F10500 X64.196 Y64.549
G1 F1920 X37.239 Y37.593 E1187.01356
G0 F10500 X37.550 Y37.197
G1 F1920 X64.454 Y64.101 E1188.14676
G0 F10500 X64.712 Y63.652
G1 F1920 X37.883 Y36.822 E1189.27682
G0 F10500 X38.236 Y36.469
G1 F1920 X64.994 Y63.226 E1190.40384
G0 F10500 X65.282 Y62.808
G1 F1920 X38.590 Y36.115 E1191.52813
G0 F10500 X38.943 Y35.761
G1 F1920 X65.584 Y62.402 E1192.65025
G0 F10500 X65.903 Y62.014
G1 F1920 X39.333 Y35.444 E1193.76938
G0 F10500 X39.730 Y35.134
G1 F1920 X66.227 Y61.631 E1194.88544
G0 F10500 X66.574 Y61.271
G1 F1920 X40.126 Y34.823 E1195.99943
G0 F10500 X40.533 Y34.523
G1 F1920 X66.938 Y60.928 E1197.11161
G0 F10500 X67.317 Y60.599
G1 F1920 X40.974 Y34.256 E1198.22118
G0 F10500 X41.414 Y33.989
G1 F1920 X67.715 Y60.290 E1199.32898
G0 F10500 X68.133 Y60.002
G1 F1920 X41.855 Y33.723 E1200.43583
G0 F10500 X42.328 Y33.489
G1 F1920 X68.568 Y59.729 E1201.54106
G0 F10500 X69.032 Y59.486
G1 F1920 X42.816 Y33.270 E1202.64528
G0 F10500 X43.304 Y33.051
G1 F1920 X69.514 Y59.261 E1203.74925
G0 F10500 X70.026 Y59.066
G1 F1920 X43.805 Y32.845 E1204.85368
G0 F10500 X44.345 Y32.678
G1 F1920 X70.583 Y58.916 E1205.95882
G0 F10500 X71.162 Y58.788
G1 F1920 X44.884 Y32.509 E1207.06568
G0 F10500 X45.426 Y32.345
